!!!!SEGMENT: pl-cz--iii-668--001-006_scigalski-franciszek--missa-sanctus.krn
!!!cenid: 18xx:1101
!!!COM: Ścigalski, Franciszek
!!!COM-rismid: pe30002948
!!!CDT: 1782/01/29-1846/09/27
!!!CNT: Polish
!!!OPR: Missa
!!!OTL: Sanctus
!!!OMV: 006
!!!PDT: 1827
!!!AGN: Sacred; Mass
!!!SMS-siglum: PL-CZ
!!!SMS-shelfmark: III-668
!!!SMS-shelfwork: 001-006 M
!!!SMS-variant:
!!!SMS-altvar:
!!!NIFC-rismid: 300001313
!!!URL-scan: http://repozytorium.nifc.pl/skany/pl-cz-nut--iii-668
!!!ONB-nifc: UWAGA: części Mszy: Kyrie, Gloria, Credo, Et incarnatus, Et resurrexit, Sanctus,
!!!AIN: 1 alto 1 bass 1 cello 2 clara 2 fagot 1 flt 1 organ 1 soprn 1 tenor 1 timpa 2 tromp 1 viola 2 violn
!!!key:
**kern	**fba	**dynam	**kern	**dynam	**kern	**dynam	**kern	**dynam	**kern	**text	**dynam	**kern	**text	**dynam	**kern	**text	**dynam	**kern	**text	**dynam	**kern	**dynam	**kern	**dynam	**kern	**dynam	**kern	**dynam	**kern	**dynam	**kern	**dynam	**kern	**dynam	**kern	**dynam
*	*	*	*group4	*	*group4	*	*group4	*	*group3	*	*	*group3	*	*	*group3	*	*	*group3	*	*	*	*	*group2	*	*group2	*	*group1	*	*group1	*	*group1	*	*group1	*	*group1	*
*part16	*	*part16	*part15	*part15	*part14	*part14	*part13	*part13	*part12	*part12	*part12	*part11	*part11	*part11	*part10	*part10	*part10	*part9	*part9	*part9	*part8	*part8	*part7	*part7	*part6	*part6	*part5	*part5	*part4	*part4	*part3	*part3	*part2	*part2	*part1	*part1
*staff16	*	*	*staff15	*	*staff14	*	*staff13	*	*staff12	*staff12	*	*staff11	*staff11	*	*staff10	*staff10	*	*staff9	*staff9	*	*staff8	*	*staff7	*	*staff6	*	*staff5	*	*staff4	*	*staff3	*	*staff2	*	*staff1	*
*I"Organo et Violoncello	*	*	*I"Alto Viola.	*	*I"Violino 2do	*	*I"Violino 1mo	*	*I"Basſo	*	*	*I"Tenore	*	*	*I"Alto	*	*	*I"Canto	*	*	*I"Tympani in B.F.	*	*I"Clarino 2do in B.	*	*I"Clarino 1mo in B.	*	*I"Fagotto 2do	*	*I"Fagotto 1mo	*	*I"Clarinetto 2do in B	*	*I"Clarinetto 1mo in B.	*	*I"Flauto	*
*I'organo et vcl	*	*	*I'a-viola	*	*I'vl 2	*	*I'vl 1	*	*I'B	*	*	*I'T	*	*	*I'A	*	*	*I'S	*	*	*I'timp	*	*I'clno 2 in B|b	*	*I'clno 1 in B|b	*	*I'fag 2	*	*I'fag 1	*	*I'cl 2 in B|b	*	*I'cl 1 in B|b	*	*I'fl	*
*Iorgan&Icello	*	*	*Iviola	*	*Ivioln	*	*Ivioln	*	*Ibass	*	*	*Itenor	*	*	*Ialto	*	*	*Isoprn	*	*	*Itimpa	*	*Itromp	*	*Itromp	*	*Ifagot	*	*Ifagot	*	*Iclara	*	*Iclara	*	*Iflt	*
*ICklav&ICstr	*	*	*ICstr	*	*ICstr	*	*ICstr	*	*ICvox	*	*	*ICvox	*	*	*ICvox	*	*	*ICvox	*	*	*ICidio	*	*ICbras	*	*ICbras	*	*ICww	*	*ICww	*	*ICww	*	*ICww	*	*ICww	*
*IGcont	*	*	*	*	*	*	*	*	*IGcoro	*	*	*IGcoro	*	*	*IGcoro	*	*	*IGcoro	*	*	*	*	*	*	*	*	*	*	*	*	*	*	*	*	*	*
*clefF4	*	*	*clefC3	*	*clefG2	*	*clefG2	*	*clefF4	*	*	*clefC4	*	*	*clefC3	*	*	*clefC1	*	*	*clefF4	*	*clefG2	*	*clefG2	*	*clefF4	*	*clefF4	*	*clefG2	*	*clefG2	*	*clefG2	*
*	*	*	*	*	*	*	*	*	*	*	*	*	*	*	*	*	*	*	*	*	*ITrd1c2	*	*ITrd1c2	*	*ITrd1c2	*	*	*	*	*	*ITrd1c2	*	*ITrd1c2	*	*	*
*k[b-e-]	*	*	*k[b-e-]	*	*k[b-e-]	*	*k[b-e-]	*	*k[b-e-]	*	*	*k[b-e-]	*	*	*k[b-e-]	*	*	*k[b-e-]	*	*	*k[b-e-]	*	*k[b-e-]	*	*k[b-e-]	*	*k[b-e-]	*	*k[b-e-]	*	*k[b-e-]	*	*k[b-e-]	*	*k[b-e-]	*
*B-:	*	*	*B-:	*	*B-:	*	*B-:	*	*B-:	*	*	*B-:	*	*	*B-:	*	*	*B-:	*	*	*B-:	*	*B-:	*	*B-:	*	*B-:	*	*B-:	*	*B-:	*	*B-:	*	*B-:	*
*M4/4	*	*	*M4/4	*	*M4/4	*	*M4/4	*	*M4/4	*	*	*M4/4	*	*	*M4/4	*	*	*M4/4	*	*	*M4/4	*	*M4/4	*	*M4/4	*	*M4/4	*	*M4/4	*	*M4/4	*	*M4/4	*	*M4/4	*
*met(c)	*	*	*met(c)	*	*met(c)	*	*met(c)	*	*met(c)	*	*	*met(c)	*	*	*met(c)	*	*	*met(c)	*	*	*met(c)	*	*met(c)	*	*met(c)	*	*met(c)	*	*met(c)	*	*met(c)	*	*met(c)	*	*met(c)	*
=1	=1	=1	=1	=1	=1	=1	=1	=1	=1	=1	=1	=1	=1	=1	=1	=1	=1	=1	=1	=1	=1	=1	=1	=1	=1	=1	=1	=1	=1	=1	=1	=1	=1	=1	=1	=1
*	*	*	*	*	*	*	*	*below	*	*	*	*	*	*	*	*	*	*	*	*	*	*	*	*	*	*	*	*	*	*	*	*	*	*	*	*
!	!	!	!	!	!	!	!	!	!	!	!	!	!	!	!	!	!	!LO:TX:t=P:problem=kolejność znaków e- b-	!	!	!	!	!	!	!	!	!	!	!	!	!	!	!	!	!	!
!	!	!	!	!	!	!	!	!	!LO:TX:a:t=1.	!	!	!LO:TX:a:t=1.	!	!	!LO:TX:a:t=1.	!	!	!LO:TX:a:t=1.	!	!	!	!	!	!	!	!	!	!	!	!	!	!	!	!	!	!
!LO:TX:a:i:t=Largo	!	!	!LO:TX:a:i:t=Largo	!	!LO:TX:a:i:t=Largo	!	!LO:TX:a:i:t=Largo	!	!	!	!	!	!	!	!	!	!	!	!	!	!LO:TX:a:i:t=Largo	!	!LO:TX:a:i:t=Largo	!	!LO:TX:a:i:t=Largo	!	!LO:TX:a:i:t=Largo	!	!LO:TX:a:i:t=Largo	!	!LO:TX:a:i:t=Largo.	!	!LO:TX:a:i:t=Largo	!	!LO:TX:a:i:t=Largo	!
!	!	!LO:DY:rj	!	!LO:DY:rj	!	!LO:DY:rj	!	!LO:DY:rj	!LO:TX:a:i:t=Largo	!	!	!LO:TX:a:i:t=Largo	!	!	!LO:TX:a:i:t=Largo	!	!	!LO:TX:a:i:t=Largo	!	!	!LO:TX:a:t=4.	!	!LO:TX:a:t=4.	!	!LO:TX:a:t=4.	!	!LO:TX:a:t=4.	!	!LO:TX:a:t=4.	!	!LO:TX:a:t=4.	!	!LO:TX:a:t=4.	!	!LO:TX:a:t=4.	!
4BB-/	.	p	4B-/	p	4.B-/	p	4.B-/	p	1r	.	.	1r	.	.	1r	.	.	1r	.	.	00r	.	00r	.	00r	.	00r	.	00r	.	00r	.	00r	.	00r	.
4BB-/	.	.	4B-/	.	.	.	.	.	.	.	.	.	.	.	.	.	.	.	.	.	.	.	.	.	.	.	.	.	.	.	.	.	.	.	.	.
.	.	.	.	.	(16d/LL	.	(16d/LL	.	.	.	.	.	.	.	.	.	.	.	.	.	.	.	.	.	.	.	.	.	.	.	.	.	.	.	.	.
.	.	.	.	.	16c/JJ)	.	16c/JJ)	.	.	.	.	.	.	.	.	.	.	.	.	.	.	.	.	.	.	.	.	.	.	.	.	.	.	.	.	.
4BB-/	.	.	4B-/	.	4.B-/	.	4.B-/	.	.	.	.	.	.	.	.	.	.	.	.	.	.	.	.	.	.	.	.	.	.	.	.	.	.	.	.	.
4BB-/	.	.	4B-/	.	.	.	.	.	.	.	.	.	.	.	.	.	.	.	.	.	.	.	.	.	.	.	.	.	.	.	.	.	.	.	.	.
.	.	.	.	.	(16d/LL	.	(16d/LL	.	.	.	.	.	.	.	.	.	.	.	.	.	.	.	.	.	.	.	.	.	.	.	.	.	.	.	.	.
.	.	.	.	.	16c/JJ)	.	16c/JJ)	.	.	.	.	.	.	.	.	.	.	.	.	.	.	.	.	.	.	.	.	.	.	.	.	.	.	.	.	.
=2	=2	=2	=2	=2	=2	=2	=2	=2	=2	=2	=2	=2	=2	=2	=2	=2	=2	=2	=2	=2	=2	=2	=2	=2	=2	=2	=2	=2	=2	=2	=2	=2	=2	=2	=2	=2
*	*	*	*tremolo	*	*	*	*	*	*	*	*	*	*	*	*	*	*	*	*	*below	*	*	*	*	*	*	*	*	*	*	*	*	*	*	*	*
!LO:TX:t=P:problem=klamra łukowa	!	!	!LO:TX:t=P:problem=klamra łukowa	!	!LO:TX:t=P:problem=klamra łukowa	!	!LO:TX:t=P:problem=klamra łukowa	!	!	!	!LO:DY:rj	!	!	!LO:DY:rj	!	!	!LO:DY:rj:t=piano	!	!	!LO:DY:rj	!	!	!	!	!	!	!	!	!	!	!	!	!	!	!	!
!	!	!	!LO:TUP:b	!	!LO:TUP:b	!	!LO:TUP:b	!	!	!	!	!	!	!	!	!	!	!	!	!	!	!	!	!	!	!	!	!	!	!	!	!	!	!	!	!
!	!	!	!LO:TX:t=P:problem=złe wyświetlanie wartości rytmicznej tremolo w t. 2,4-7, 10, 12-17	!	!	!	!	!	!	!	!	!	!	!	!	!	!	!	!	!	!	!	!	!	!	!	!	!	!	!	!	!	!	!	!	!
!LO:TUP:b	!	!	!LO:N:TREM:vis=4.	!	!	!	!	!	!	!	!	!	!	!	!	!	!	!	!	!	!	!	!	!	!	!	!	!	!	!	!	!	!	!	!	!
12BB-/L	5_ 3	.	12B-/L	.	12B-/L	.	12B-/L	.	1BB-/	San-	p	1B-\	San-	p	1d\	San-	p	1f/	San-	p	.	.	.	.	.	.	.	.	.	.	.	.	.	.	.	.
12BB-/	.	.	12B-/	.	12d/	.	12f/	.	.	.	.	.	.	.	.	.	.	.	.	.	.	.	.	.	.	.	.	.	.	.	.	.	.	.	.	.
12BB-/J	.	.	12B-/J	.	12d/J	.	12f/J	.	.	.	.	.	.	.	.	.	.	.	.	.	.	.	.	.	.	.	.	.	.	.	.	.	.	.	.	.
*tremolo	*	*	*	*	*	*	*	*	*	*	*	*	*	*	*	*	*	*	*	*	*	*	*	*	*	*	*	*	*	*	*	*	*	*	*	*
*	*	*	*	*	*tremolo	*	*	*	*	*	*	*	*	*	*	*	*	*	*	*	*	*	*	*	*	*	*	*	*	*	*	*	*	*	*	*
!LO:N:TREM:vis=4.	!	!	!	!	!LO:TX:t=P:problem=klamra łukowa	!	!	!	!	!	!	!	!	!	!	!	!	!	!	!	!	!	!	!	!	!	!	!	!	!	!	!	!	!	!	!
!LO:TX:t=P:problem=złe wyświetlanie wartości rytmicznej tremolo w t. 2,4,10,12,15	!	!	!LO:TX:t=P:problem=klamra łukowa	!	!LO:TX:b:t=...	!	!LO:TUP:b	!	!	!	!	!	!	!	!	!	!	!	!	!	!	!	!	!	!	!	!	!	!	!	!	!	!	!	!	!
!LO:TX:t=P:problem=klamra łukowa	!	!	!	!	!LO:TX:t=P:problem=złe wyświetlanie wartości rytmicznej tremolo w t. 2,4-7, 10, 12-15	!	!	!	!	!	!	!	!	!	!	!	!	!	!	!	!	!	!	!	!	!	!	!	!	!	!	!	!	!	!	!
!LO:TUP:b	!	!	!LO:TUP:b	!	!LO:N:TREM:vis=4.	!	!	!	!	!	!	!	!	!	!	!	!	!	!	!	!	!	!	!	!	!	!	!	!	!	!	!	!	!	!	!
12BB-/L	.	.	12B-/L	.	12d'/L	.	12f/L	.	.	.	.	.	.	.	.	.	.	.	.	.	.	.	.	.	.	.	.	.	.	.	.	.	.	.	.	.
12BB-/	.	.	12B-/	.	12d'/	.	12f/	.	.	.	.	.	.	.	.	.	.	.	.	.	.	.	.	.	.	.	.	.	.	.	.	.	.	.	.	.
12BB-/J	.	.	12B-/J	.	12d'/J	.	12f/J	.	.	.	.	.	.	.	.	.	.	.	.	.	.	.	.	.	.	.	.	.	.	.	.	.	.	.	.	.
*	*	*	*	*	*	*	*Xtuplet	*	*	*	*	*	*	*	*	*	*	*	*	*	*	*	*	*	*	*	*	*	*	*	*	*	*	*	*	*
!LO:TUP:b	!	!	!LO:TUP:b	!	!	!	!	!	!	!	!	!	!	!	!	!	!	!	!	!	!	!	!	!	!	!	!	!	!	!	!	!	!	!	!	!
!LO:TX:t=P:problem=klamra łukowa	!	!	!LO:TX:t=P:problem=klamra łukowa	!	!LO:TX:t=P:problem=klamra łukowa	!	!	!	!	!	!	!	!	!	!	!	!	!	!	!	!	!	!	!	!	!	!	!	!	!	!	!	!	!	!	!
12BB-/L	.	.	12B-/L	.	12d'/L	.	12f/L	.	.	.	.	.	.	.	.	.	.	.	.	.	.	.	.	.	.	.	.	.	.	.	.	.	.	.	.	.
12BB-/	.	.	12B-/	.	12d'/	.	12f/	.	.	.	.	.	.	.	.	.	.	.	.	.	.	.	.	.	.	.	.	.	.	.	.	.	.	.	.	.
12BB-/J	.	.	12B-/J	.	12d'/J	.	12f/J	.	.	.	.	.	.	.	.	.	.	.	.	.	.	.	.	.	.	.	.	.	.	.	.	.	.	.	.	.
!LO:TUP:b	!	!	!LO:TUP:b	!	!	!	!	!	!	!	!	!	!	!	!	!	!	!	!	!	!	!	!	!	!	!	!	!	!	!	!	!	!	!	!	!
!LO:TX:t=P:problem=klamra łukowa	!	!	!LO:TX:t=P:problem=klamra łukowa	!	!LO:TX:t=P:problem=klamra łukowa	!	!	!	!	!	!	!	!	!	!	!	!	!	!	!	!	!	!	!	!	!	!	!	!	!	!	!	!	!	!	!
12BB-/L	.	.	12B-/L	.	12d'/L	.	12g/L	.	.	.	.	.	.	.	.	.	.	.	.	.	.	.	.	.	.	.	.	.	.	.	.	.	.	.	.	.
12BB-/	.	.	12B-/	.	12d'/	.	12f/	.	.	.	.	.	.	.	.	.	.	.	.	.	.	.	.	.	.	.	.	.	.	.	.	.	.	.	.	.
12BB-/J	.	.	12B-/J	.	12d'/J	.	12e-/J	.	.	.	.	.	.	.	.	.	.	.	.	.	.	.	.	.	.	.	.	.	.	.	.	.	.	.	.	.
*	*	*	*Xtremolo	*	*Xtremolo	*	*	*	*	*	*	*	*	*	*	*	*	*	*	*	*	*	*	*	*	*	*	*	*	*	*	*	*	*	*	*
=3	=3	=3	=3	=3	=3	=3	=3	=3	=3	=3	=3	=3	=3	=3	=3	=3	=3	=3	=3	=3	=3	=3	=3	=3	=3	=3	=3	=3	=3	=3	=3	=3	=3	=3	=3	=3
4AA/	6_ 5_	.	4A/	.	4.c/	.	4.c/	.	4AA/	-ctus	.	4c\	-ctus	.	4e-\	-ctus	.	4f/	-ctus	.	.	.	.	.	.	.	.	.	.	.	.	.	.	.	.	.
4AA/	.	.	4A/	.	.	.	.	.	4r	.	.	4r	.	.	4r	.	.	4r	.	.	.	.	.	.	.	.	.	.	.	.	.	.	.	.	.	.
.	.	.	.	.	(16e-/LL	.	(16e-X/LL	.	.	.	.	.	.	.	.	.	.	.	.	.	.	.	.	.	.	.	.	.	.	.	.	.	.	.	.	.
.	.	.	.	.	16d/JJ)	.	16d/JJ)	.	.	.	.	.	.	.	.	.	.	.	.	.	.	.	.	.	.	.	.	.	.	.	.	.	.	.	.	.
4AA/	.	.	4A/	.	4.c/	.	4.c/	.	2r	.	.	2r	.	.	2r	.	.	2r	.	.	.	.	.	.	.	.	.	.	.	.	.	.	.	.	.	.
4AA/	.	.	4A/	.	.	.	.	.	.	.	.	.	.	.	.	.	.	.	.	.	.	.	.	.	.	.	.	.	.	.	.	.	.	.	.	.
.	.	.	.	.	(16e-/LL	.	(16e-/LL	.	.	.	.	.	.	.	.	.	.	.	.	.	.	.	.	.	.	.	.	.	.	.	.	.	.	.	.	.
.	.	.	.	.	16d/JJ)	.	16d/JJ)	.	.	.	.	.	.	.	.	.	.	.	.	.	.	.	.	.	.	.	.	.	.	.	.	.	.	.	.	.
=4	=4	=4	=4	=4	=4	=4	=4	=4	=4	=4	=4	=4	=4	=4	=4	=4	=4	=4	=4	=4	=4	=4	=4	=4	=4	=4	=4	=4	=4	=4	=4	=4	=4	=4	=4	=4
*	*	*	*tremolo	*	*	*	*tuplet	*	*	*	*	*	*	*	*	*	*	*	*	*	*	*	*	*	*	*	*	*	*	*	*	*	*	*	*	*
!LO:TUP:b	!	!	!LO:TUP:b	!	!LO:TUP:b	!	!	!	!	!	!	!	!	!	!	!	!	!	!	!	!	!	!	!	!	!	!	!	!	!	!	!	!	!	!	!
!LO:TX:t=P:problem=klamra łukowa	!	!	!LO:TX:t=P:problem=klamra łukowa	!	!LO:TX:t=P:problem=klamra łukowa	!	!LO:TUP:b	!	!	!	!	!	!	!	!	!	!	!	!	!	!	!	!	!	!	!	!	!	!	!	!	!	!	!	!	!
12AA/L	6_ 5_	.	12A/L	.	12c/L	.	12c/L	.	1AA/	San-	.	1c\	San-	.	1e-\	San-	.	1f/	San-	.	.	.	.	.	.	.	.	.	.	.	.	.	.	.	.	.
12AA/	.	.	12A/	.	12e-/	.	12f/	.	.	.	.	.	.	.	.	.	.	.	.	.	.	.	.	.	.	.	.	.	.	.	.	.	.	.	.	.
12AA/J	.	.	12A/J	.	12e-/J	.	12f/J	.	.	.	.	.	.	.	.	.	.	.	.	.	.	.	.	.	.	.	.	.	.	.	.	.	.	.	.	.
*	*	*	*	*	*	*	*Xtuplet	*	*	*	*	*	*	*	*	*	*	*	*	*	*	*	*	*	*	*	*	*	*	*	*	*	*	*	*	*
*	*	*	*	*	*tremolo	*	*tremolo	*	*	*	*	*	*	*	*	*	*	*	*	*	*	*	*	*	*	*	*	*	*	*	*	*	*	*	*	*
!	!	!	!LO:TUP:b	!	!	!	!LO:TX:b:t=...	!	!	!	!	!	!	!	!	!	!	!	!	!	!	!	!	!	!	!	!	!	!	!	!	!	!	!	!	!
!LO:TX:t=P:problem=klamra łukowa	!	!	!LO:TX:t=P:problem=klamra łukowa	!	!LO:TX:t=P:problem=klamra łukowa	!	!LO:N:TREM:vis=4.	!	!	!	!	!	!	!	!	!	!	!	!	!	!	!	!	!	!	!	!	!	!	!	!	!	!	!	!	!
!LO:TUP:b	!	!	!	!	!LO:TUP:b	!	!LO:TX:t=P:problem=złe wyświetlanie wartości rytmicznej tremolo w t. 4, 10, 14	!	!	!	!	!	!	!	!	!	!	!	!	!	!	!	!	!	!	!	!	!	!	!	!	!	!	!	!	!
12AA/L	.	.	12A/L	.	12e-/L	.	12f'/L	.	.	.	.	.	.	.	.	.	.	.	.	.	.	.	.	.	.	.	.	.	.	.	.	.	.	.	.	.
12AA/	.	.	12A/	.	12e-/	.	12f'/	.	.	.	.	.	.	.	.	.	.	.	.	.	.	.	.	.	.	.	.	.	.	.	.	.	.	.	.	.
12AA/J	.	.	12A/J	.	12e-/J	.	12f'/J	.	.	.	.	.	.	.	.	.	.	.	.	.	.	.	.	.	.	.	.	.	.	.	.	.	.	.	.	.
*	*	*	*	*	*	*	*Xtremolo	*	*	*	*	*	*	*	*	*	*	*	*	*	*	*	*	*	*	*	*	*	*	*	*	*	*	*	*	*
!LO:TX:t=P:problem=klamra łukowa	!	!	!LO:TX:t=P:problem=klamra łukowa	!	!LO:TX:t=P:problem=klamra łukowa	!	!	!	!	!	!	!	!	!	!	!	!	!	!	!	!	!	!	!	!	!	!	!	!	!	!	!	!	!	!	!
!LO:TUP:b	!	!	!LO:TUP:b	!	!LO:TUP:b	!	!	!	!	!	!	!	!	!	!	!	!	!	!	!	!	!	!	!	!	!	!	!	!	!	!	!	!	!	!	!
12AA/L	.	.	12A/L	.	12e-/L	.	12f/L	.	.	.	.	.	.	.	.	.	.	.	.	.	.	.	.	.	.	.	.	.	.	.	.	.	.	.	.	.
12AA/	.	.	12A/	.	12e-/	.	12en/	.	.	.	.	.	.	.	.	.	.	.	.	.	.	.	.	.	.	.	.	.	.	.	.	.	.	.	.	.
12AA/J	.	.	12A/J	.	12e-/J	.	12f/J	.	.	.	.	.	.	.	.	.	.	.	.	.	.	.	.	.	.	.	.	.	.	.	.	.	.	.	.	.
!LO:TX:t=P:problem=klamra łukowa	!	!	!LO:TX:t=P:problem=klamra łukowa	!	!LO:TX:t=P:problem=klamra łukowa	!	!	!	!	!	!	!	!	!	!	!	!	!	!	!	!	!	!	!	!	!	!	!	!	!	!	!	!	!	!	!
!LO:TUP:b	!	!	!LO:TUP:b	!	!LO:TUP:b	!	!	!	!	!	!	!	!	!	!	!	!	!	!	!	!	!	!	!	!	!	!	!	!	!	!	!	!	!	!	!
12AA/L	.	.	12A/L	.	12e-/L	.	12g/L	.	.	.	.	.	.	.	.	.	.	.	.	.	.	.	.	.	.	.	.	.	.	.	.	.	.	.	.	.
12AA/	.	.	12A/	.	12e-/	.	12f/	.	.	.	.	.	.	.	.	.	.	.	.	.	.	.	.	.	.	.	.	.	.	.	.	.	.	.	.	.
12AA/J	.	.	12A/J	.	12e-/J	.	12f/J	.	.	.	.	.	.	.	.	.	.	.	.	.	.	.	.	.	.	.	.	.	.	.	.	.	.	.	.	.
*Xtremolo	*	*	*	*	*	*	*	*	*	*	*	*	*	*	*	*	*	*	*	*	*	*	*	*	*	*	*	*	*	*	*	*	*	*	*	*
!LO:LB:g=original	!	!	!	!	!LO:LB:g=original	!	!LO:LB:g=original	!	!	!	!	!	!	!	!	!	!	!	!	!	!	!	!	!	!	!	!	!	!	!	!	!	!	!	!	!
=5	=5	=5	=5	=5	=5	=5	=5	=5	=5	=5	=5	=5	=5	=5	=5	=5	=5	=5	=5	=5	=5	=5	=5	=5	=5	=5	=5	=5	=5	=5	=5	=5	=5	=5	=5	=5
*	*	*	*	*	*Xtremolo	*	*tuplet	*	*	*	*	*	*	*	*	*	*	*	*	*	*	*	*	*	*	*	*2\right	*	*	*	*2\right	*	*	*	*	*
!	!	!	!	!	!	!	!	!	!	!	!	!	!	!	!	!	!	!	!	!	!	!	!	!	!	!	!	!	!	!	!	!	!	!	!LO:TUP:a	!
!	!	!	!	!	!LO:TUP:b	!	!	!	!	!	!	!	!	!	!	!	!	!	!	!	!	!	!	!	!	!	!	!	!	!	!	!	!	!	!LO:TX:t=P:problem=klamra łukowa	!
!	!	!LO:DY:rj	!LO:TUP:b	!LO:DY:rj	!LO:TX:t=P:problem=klamra łukowa	!LO:DY:rj:t=f.	!LO:TUP:b	!LO:DY:rj:t=f.	!	!	!	!	!	!	!	!	!	!	!	!	!	!LO:DY:rj:t=f.	!	!LO:DY:rj	!	!LO:DY:rj	!	!LO:DY:rj	!	!LO:DY:rj	!	!LO:DY:rj:t=f.	!	!LO:DY:rj:t=f.	!	!LO:DY:rj:t=f.
4BB-/	3	f	12B-/L	f	12d/L	f	12f/L	f	4BB-\	-ctus,	.	4B-\	-ctus	.	4d\	-ctus	.	4f\	-ctus	.	4BB-/	f	4F/	f	4f/	f	2B-\	f	2d\	f	2b-\	f	2dd\	f	12ff\L	f
.	.	.	12B-/	.	12f/	.	12dd/	.	.	.	.	.	.	.	.	.	.	.	.	.	.	.	.	.	.	.	.	.	.	.	.	.	.	.	12ddd\	.
.	.	.	12B-/J	.	12e-/J	.	12cc/J	.	.	.	.	.	.	.	.	.	.	.	.	.	.	.	.	.	.	.	.	.	.	.	.	.	.	.	12ccc\J	.
*	*	*	*	*	*tremolo	*	*	*	*	*	*	*	*	*	*	*	*	*	*	*	*	*	*	*	*	*	*	*	*	*	*	*	*	*	*tremolo	*
!	!	!	!	!	!LO:TUP:b	!	!	!	!	!	!	!	!	!	!	!	!	!	!	!	!	!	!	!	!	!	!	!	!	!	!	!	!	!	!LO:TUP:a	!
!	!	!	!LO:TUP:b	!	!LO:TX:t=P:problem=klamra łukowa	!	!	!	!	!	!	!	!	!	!	!	!	!	!	!	!	!	!	!	!	!	!	!	!	!	!	!	!	!	!LO:TX:t=P:problem=klamra łukowa	!
!	!	!	!	!	!	!	!	!	!	!	!	!	!	!	!	!	!	!	!	!	!	!	!	!	!	!	!	!	!	!	!	!	!	!	!LO:N:TREM:vis=4.	!
!	!	!	!	!	!	!	!	!	!	!	!	!	!	!	!	!	!	!	!	!	!	!	!	!	!	!	!	!	!	!	!	!	!	!	!LO:TX:t=P:problem=złe wyświetlanie wartości rytmicznej tremolo w t. 5-6, 13-14	!
4FF/	.	.	12B-/L	.	12d/L	.	12b-\L	.	4r	.	.	4r	.	.	4r	.	.	4r	.	.	4r	.	4r	.	4r	.	.	.	.	.	.	.	.	.	12bb-\L	.
.	.	.	12B-/	.	12d/	.	12b-\	.	.	.	.	.	.	.	.	.	.	.	.	.	.	.	.	.	.	.	.	.	.	.	.	.	.	.	12bb-\	.
.	.	.	12B-/J	.	12d/J	.	12b-\J	.	.	.	.	.	.	.	.	.	.	.	.	.	.	.	.	.	.	.	.	.	.	.	.	.	.	.	12bb-\J	.
*	*	*	*Xtremolo	*	*	*	*	*	*	*	*	*	*	*	*	*	*	*	*	*	*	*	*	*	*	*	*	*	*	*	*	*	*	*	*Xtremolo	*
!	!	!	!LO:TUP:b	!	!LO:TUP:b	!	!	!	!	!	!	!	!	!	!	!	!	!	!	!	!	!	!	!	!	!	!	!	!	!	!	!	!	!	!LO:TUP:a	!
!	!	!	!LO:TX:t=P:problem=klamra łukowa	!	!LO:TX:t=P:problem=klamra łukowa	!	!	!	!	!	!LO:DY:rj	!	!	!LO:DY:rj:t=f.	!	!	!LO:DY:rj:t=forto	!	!	!LO:DY:rj	!	!	!	!	!	!	!	!	!	!	!	!	!	!	!LO:TX:t=P:problem=klamra łukowa	!
4C/	3	.	12A/L	.	12e-/ 12c/L	.	12a\L	.	4F\	San-	f	4e-\	San-	f	4f\	San-	f	4cc\	San-	f	4FF/	.	4F/	.	4f/	.	2c\	.	2e-\	.	2cc\	.	2ee-\	.	12aa\L	.
.	.	.	12F/	.	12e-/ 12c/	.	12ff\	.	.	.	.	.	.	.	.	.	.	.	.	.	.	.	.	.	.	.	.	.	.	.	.	.	.	.	12fff\	.
.	.	.	12F/J	.	12e-/ 12c/J	.	12ff\J	.	.	.	.	.	.	.	.	.	.	.	.	.	.	.	.	.	.	.	.	.	.	.	.	.	.	.	12fff\J	.
*	*	*	*tremolo	*	*	*	*Xtuplet	*	*	*	*	*	*	*	*	*	*	*	*	*	*	*	*	*	*	*	*	*	*	*	*	*	*	*	*	*
!	!	!	!LO:TUP:b	!	!LO:TUP:b	!	!	!	!	!	!	!	!	!	!	!	!	!	!	!	!	!	!	!	!	!	!	!	!	!	!	!	!	!	!LO:TUP:a	!
!	!	!	!LO:TX:t=P:problem=klamra łukowa	!	!LO:TX:t=P:problem=klamra łukowa	!	!	!	!	!	!	!	!	!	!	!	!	!	!	!	!	!	!	!	!	!	!	!	!	!	!	!	!	!	!LO:TX:t=P:problem=klamra łukowa	!
4FF/	.	.	12A/ 12F/L	.	12e-/ 12c/L	.	12gg\L	.	4F\	-ctus	.	4e-\	-ctus	.	4f\	-ctus	.	4cc\	-ctus	.	4r	.	4r	.	4r	.	.	.	.	.	.	.	.	.	12ggg\L	.
.	.	.	12A/ 12F/	.	12e-/ 12c/	.	12ff\	.	.	.	.	.	.	.	.	.	.	.	.	.	.	.	.	.	.	.	.	.	.	.	.	.	.	.	12fff\	.
.	.	.	12A/ 12F/J	.	12e-/ 12c/J	.	12ff\J	.	.	.	.	.	.	.	.	.	.	.	.	.	.	.	.	.	.	.	.	.	.	.	.	.	.	.	12fff\J	.
!	!	!	!LO:LB:g=original	!	!	!	!	!	!	!	!	!	!	!	!	!	!	!	!	!	!	!	!	!	!	!	!	!	!	!	!	!	!	!	!	!
=6	=6	=6	=6	=6	=6	=6	=6	=6	=6	=6	=6	=6	=6	=6	=6	=6	=6	=6	=6	=6	=6	=6	=6	=6	=6	=6	=6	=6	=6	=6	=6	=6	=6	=6	=6	=6
*	*	*	*	*	*Xtremolo	*	*tuplet	*	*	*	*	*	*	*	*	*	*	*	*	*	*	*	*	*	*	*	*	*	*	*	*	*	*	*	*	*
!	!	!	!LO:TUP:b	!	!LO:TUP:b	!	!	!	!	!	!	!	!	!	!	!	!	!	!	!	!	!	!	!	!	!	!	!	!	!	!	!	!	!	!LO:TX:t=P:problem=klamra łukowa	!
!	!	!	!LO:TX:t=P:problem=klamra łukowa	!	!LO:TX:t=P:problem=klamra łukowa	!	!LO:TUP:b	!	!	!	!	!	!	!	!	!	!LO:DY:t=piano:color=grey	!	!	!	!	!	!	!	!	!	!	!	!	!	!	!	!	!	!LO:TUP:a	!
4BB-/	3	.	12B-/L	.	12d/L	.	12f/L	.	8.F\	do-	.	8.d\	do-	.	8.f\	do-	p	8.b-\	Do-	.	4BB-/	.	4F/	.	4f/	.	2B-\	.	2d\	.	2b-\	.	2dd\	.	12ff\L	.
.	.	.	12B-/	.	12f/	.	12dd/	.	.	.	.	.	.	.	.	.	.	.	.	.	.	.	.	.	.	.	.	.	.	.	.	.	.	.	12ddd\	.
.	.	.	12B-/J	.	12e-/J	.	12cc/J	.	.	.	.	.	.	.	.	.	.	.	.	.	.	.	.	.	.	.	.	.	.	.	.	.	.	.	12ccc\J	.
*	*	*	*	*	*tremolo	*	*	*	*	*	*	*	*	*	*	*	*	*	*	*	*	*	*	*	*	*	*	*	*	*	*	*	*	*	*tremolo	*
.	.	.	.	.	.	.	.	.	16F\	-mi-	.	16d\	-mi-	.	16f\	-mi-	.	16b-\	-mi-	.	.	.	.	.	.	.	.	.	.	.	.	.	.	.	.	.
!	!	!	!LO:TUP:b	!	!LO:TUP:b	!	!	!	!	!	!	!	!	!	!	!	!	!	!	!	!	!	!	!	!	!	!	!	!	!	!	!	!	!	!LO:TUP:a	!
!	!	!	!LO:TX:t=P:problem=klamra łukowa	!	!LO:TX:t=P:problem=klamra łukowa	!	!LO:TX:t=P:problem=kreska zamiast numeru	!	!	!	!	!	!	!	!	!	!	!	!	!	!	!	!	!	!	!	!	!	!	!	!	!	!	!	!LO:TX:t=P:problem=klamra łukowa	!
4FF/	.	.	12B-/L	.	12d/L	.	12b-\L	.	4F\	-nus	.	4d\	-nus	.	4f\	-nus	.	4b-\	-nus	.	4r	.	4r	.	4r	.	.	.	.	.	.	.	.	.	12bb-\L	.
.	.	.	12B-/	.	12d/	.	12b-\	.	.	.	.	.	.	.	.	.	.	.	.	.	.	.	.	.	.	.	.	.	.	.	.	.	.	.	12bb-\	.
.	.	.	12B-/J	.	12d/J	.	12b-\J	.	.	.	.	.	.	.	.	.	.	.	.	.	.	.	.	.	.	.	.	.	.	.	.	.	.	.	12bb-\J	.
*	*	*	*Xtremolo	*	*	*	*	*	*	*	*	*	*	*	*	*	*	*	*	*	*	*	*	*	*	*	*	*	*	*	*	*	*	*	*Xtremolo	*
!	!	!	!LO:TUP:b	!	!LO:TUP:b	!	!	!	!	!	!	!	!	!	!	!	!	!	!	!	!	!	!	!	!	!	!	!	!	!	!	!	!	!	!LO:TUP:a	!
!	!	!	!LO:TX:t=P:problem=klamra łukowa	!	!LO:TX:t=P:problem=klamra łukowa	!	!	!	!	!	!	!	!	!	!	!	!	!	!	!	!	!	!	!	!	!	!	!	!	!	!	!	!	!	!LO:TX:t=P:problem=klamra łukowa	!
4C/	3	.	12A/L	.	12e-/ 12c/L	.	12a\L	.	4F\	De-	.	4e-\	De-	.	4f\	De-	.	4cc\	De-	.	4FF/	.	4F/	.	4f/	.	2c\	.	2e-\	.	2cc\	.	2ee-\	.	12aa\L	.
.	.	.	12F/	.	12e-/ 12c/	.	12ff\	.	.	.	.	.	.	.	.	.	.	.	.	.	.	.	.	.	.	.	.	.	.	.	.	.	.	.	12fff\	.
.	.	.	12F/J	.	12e-/ 12c/J	.	12ff\J	.	.	.	.	.	.	.	.	.	.	.	.	.	.	.	.	.	.	.	.	.	.	.	.	.	.	.	12fff\J	.
*	*	*	*tremolo	*	*	*	*	*	*	*	*	*	*	*	*	*	*	*	*	*	*	*	*	*	*	*	*	*	*	*	*	*	*	*	*	*
!	!	!	!LO:TUP:b	!	!LO:TUP:b	!	!	!	!	!	!	!	!	!	!	!	!	!	!	!	!	!	!	!	!	!	!	!	!	!	!	!	!	!	!LO:TUP:a	!
!	!	!	!LO:TX:t=P:problem=klamra łukowa	!	!LO:TX:t=P:problem=klamra łukowa	!	!	!	!	!	!	!	!	!	!	!	!	!	!	!	!	!	!	!	!	!	!	!	!	!	!	!	!	!	!LO:TX:t=P:problem=klamra łukowa	!
4FF/	.	.	12A/ 12F/L	.	12e-/ 12c/L	.	12gg\L	.	4F\	-us	.	4e-\	-us	.	4f\	-us	.	4cc\	-us	.	4r	.	4r	.	4r	.	.	.	.	.	.	.	.	.	12ggg\L	.
.	.	.	12A/ 12F/	.	12e-/ 12c/	.	12ff\	.	.	.	.	.	.	.	.	.	.	.	.	.	.	.	.	.	.	.	.	.	.	.	.	.	.	.	12fff\	.
.	.	.	12A/ 12F/J	.	12e-/ 12c/J	.	12ff\J	.	.	.	.	.	.	.	.	.	.	.	.	.	.	.	.	.	.	.	.	.	.	.	.	.	.	.	12fff\J	.
!	!	!	!	!	!	!	!	!	!LO:LB:g=original	!	!	!LO:LB:g=original	!	!	!LO:LB:g=original	!	!	!LO:LB:g=original	!	!	!	!	!	!	!	!	!	!	!	!	!	!	!	!	!	!
=7	=7	=7	=7	=7	=7	=7	=7	=7	=7	=7	=7	=7	=7	=7	=7	=7	=7	=7	=7	=7	=7	=7	=7	=7	=7	=7	=7	=7	=7	=7	=7	=7	=7	=7	=7	=7
*	*	*	*	*	*Xtremolo	*	*Xtuplet	*	*	*	*	*2\right	*	*	*2\right	*	*	*2\right	*	*	*	*	*	*	*	*	*	*	*	*	*	*	*	*	*2\right	*
!	!	!	!LO:TUP:b	!	!LO:TUP:b	!	!	!	!	!	!	!	!	!	!	!	!	!	!	!	!	!	!	!	!	!	!	!	!	!	!	!	!	!	!	!
!	!	!	!LO:TX:t=P:problem=klamra łukowa	!	!LO:TX:t=P:problem=klamra łukowa	!	!	!	!	!	!	!	!	!	!	!	!	!	!	!	!	!	!	!	!	!	!	!	!	!	!	!	!	!	!	!
4BB-/	3	.	12B-/L	.	12d/L 12B-/	.	12ff\L	.	2BB-/	Sa-	.	2B-\	Sa-	.	2f\	Sa-	.	2dd\	Sa-	.	4BB-/	.	4B-/	.	4b-\	.	2B-\	.	2d\	.	2b-\	.	2dd\	.	2ddd\	.
.	.	.	12B-/	.	12dd/ 12f/	.	12bb-\	.	.	.	.	.	.	.	.	.	.	.	.	.	.	.	.	.	.	.	.	.	.	.	.	.	.	.	.	.
.	.	.	12B-/J	.	12dd/J 12f/	.	12bb-\J	.	.	.	.	.	.	.	.	.	.	.	.	.	.	.	.	.	.	.	.	.	.	.	.	.	.	.	.	.
*	*	*	*	*	*tremolo	*	*	*	*	*	*	*	*	*	*	*	*	*	*	*	*	*	*	*	*	*	*	*	*	*	*	*	*	*	*	*
!	!	!	!LO:TUP:b	!	!LO:TUP:b	!	!	!	!	!	!	!	!	!	!	!	!	!	!	!	!	!	!	!	!	!	!	!	!	!	!	!	!	!	!	!
!	!	!	!LO:TX:t=P:problem=klamra łukowa	!	!LO:TX:t=P:problem=klamra łukowa	!	!	!	!	!	!	!	!	!	!	!	!	!	!	!	!	!	!	!	!	!	!	!	!	!	!	!	!	!	!	!
4BB-/	.	.	12B-/L	.	12dd/ 12f/L	.	12bb-\L	.	.	.	.	.	.	.	.	.	.	.	.	.	4r	.	4r	.	4r	.	.	.	.	.	.	.	.	.	.	.
.	.	.	12B-/	.	12dd/ 12f/	.	12bb-\	.	.	.	.	.	.	.	.	.	.	.	.	.	.	.	.	.	.	.	.	.	.	.	.	.	.	.	.	.
.	.	.	12B-/J	.	12dd/ 12f/J	.	12bb-\J	.	.	.	.	.	.	.	.	.	.	.	.	.	.	.	.	.	.	.	.	.	.	.	.	.	.	.	.	.
!	!	!	!LO:TUP:b	!	!LO:TUP:b	!	!	!	!	!	!	!	!	!	!	!	!	!	!	!	!	!	!	!	!	!	!	!	!	!	!	!	!	!	!	!
!	!	!	!LO:TX:t=P:problem=klamra łukowa	!	!LO:TX:t=P:problem=klamra łukowa	!	!	!	!	!	!	!	!	!	!	!	!	!	!	!	!	!	!	!	!	!	!	!	!	!	!	!	!	!	!	!
4C/	n	.	12c/L	.	12cc/ 12g/L	.	12bb-\L	.	2C/	-ba-	.	2B-\	-ba-	.	2g\	-ba-	.	2een\	-ba-	.	2r	.	2r	.	2r	.	2G\	.	2en\	.	2b-\	.	2eeX\	.	4eeen\	.
.	.	.	12c/	.	12cc/ 12g/	.	12gg\	.	.	.	.	.	.	.	.	.	.	.	.	.	.	.	.	.	.	.	.	.	.	.	.	.	.	.	.	.
.	.	.	12c/J	.	12cc/ 12g/J	.	12een\J	.	.	.	.	.	.	.	.	.	.	.	.	.	.	.	.	.	.	.	.	.	.	.	.	.	.	.	.	.
!	!	!	!LO:TUP:b	!	!LO:TUP:b	!	!	!	!	!	!	!	!	!	!	!	!	!	!	!	!	!	!	!	!	!	!	!	!	!	!	!	!	!	!LO:TUP:a	!
!	!	!	!LO:TX:t=P:problem=klamra łukowa	!	!LO:TX:t=P:problem=klamra łukowa	!	!	!	!	!	!	!	!	!	!	!	!	!	!	!	!	!	!	!	!	!	!	!	!	!	!	!	!	!	!LO:TX:t=P:problem=klamra łukowa	!
4C/	.	.	12c/L	.	12b-/ 12g/L	.	12cc\L	.	.	.	.	.	.	.	.	.	.	.	.	.	.	.	.	.	.	.	.	.	.	.	.	.	.	.	12ccc\L	.
.	.	.	12c/	.	12b-/ 12g/	.	12b-\	.	.	.	.	.	.	.	.	.	.	.	.	.	.	.	.	.	.	.	.	.	.	.	.	.	.	.	12bb-\	.
.	.	.	12c/J	.	12b-/ 12g/J	.	12g\J	.	.	.	.	.	.	.	.	.	.	.	.	.	.	.	.	.	.	.	.	.	.	.	.	.	.	.	12gg\J	.
=8	=8	=8	=8	=8	=8	=8	=8	=8	=8	=8	=8	=8	=8	=8	=8	=8	=8	=8	=8	=8	=8	=8	=8	=8	=8	=8	=8	=8	=8	=8	=8	=8	=8	=8	=8	=8
*	*	*	*Xtremolo	*	*Xtremolo	*	*	*	*2\right	*	*	*	*	*	*	*	*	*	*	*	*	*	*	*	*	*	*	*	*	*	*	*	*	*	*	*
!	!	!	!	!	!LO:TUP:b	!	!	!	!	!	!	!	!	!	!	!	!	!	!	!	!	!	!	!	!	!	!	!	!	!	!	!	!	!	!LO:TUP:a	!
!	!	!	!	!	!LO:TX:t=P:problem=klamra łukowa	!	!	!	!	!	!	!	!	!	!	!	!	!	!	!	!LO:TX:t=P:tr = tr:problem	!	!	!	!	!	!	!	!	!	!	!	!	!	!LO:TX:t=P:problem=klamra łukowa	!
4F\	.	.	4f\	.	12f/L	.	12f/L	.	2.F\	-oth	.	2.c\	-oth	.	2.a\	-oth	.	2.ff\	-oth	.	2FFT/	.	4F/	.	4f/	.	2F\	.	2f\	.	2a\	.	2ff\	.	12ff\L	.
.	.	.	.	.	12a/	.	12a/	.	.	.	.	.	.	.	.	.	.	.	.	.	.	.	.	.	.	.	.	.	.	.	.	.	.	.	12aa\	.
.	.	.	.	.	12g/J	.	12g/J	.	.	.	.	.	.	.	.	.	.	.	.	.	.	.	.	.	.	.	.	.	.	.	.	.	.	.	12gg\J	.
!	!	!	!	!	!LO:TUP:b	!	!	!	!	!	!	!	!	!	!	!	!	!	!	!	!	!	!	!	!	!	!	!	!	!	!	!	!	!	!LO:TUP:a	!
!LO:TX:t=P:problem=klamra łukowa	!	!	!LO:TX:t=P:problem=klamra łukowa	!	!LO:TX:t=P:problem=klamra łukowa	!	!	!	!	!	!	!	!	!	!	!	!	!	!	!	!	!	!	!	!	!	!	!	!	!	!	!	!	!	!LO:TX:t=P:problem=klamra łukowa	!
12F\L	.	.	12f\L	.	12f/L	.	12f/L	.	.	.	.	.	.	.	.	.	.	.	.	.	.	.	4F/	.	4f/	.	.	.	.	.	.	.	.	.	12ff\L	.
12C\	.	.	12c\	.	12a/	.	12a/	.	.	.	.	.	.	.	.	.	.	.	.	.	.	.	.	.	.	.	.	.	.	.	.	.	.	.	12aa\	.
12AA\J	.	.	12A\J	.	12cc/J	.	12cc/J	.	.	.	.	.	.	.	.	.	.	.	.	.	.	.	.	.	.	.	.	.	.	.	.	.	.	.	12ccc\J	.
4FF/	.	.	4F/	.	4ff\	.	4ff\	.	.	.	.	.	.	.	.	.	.	.	.	.	4FF/	.	4F/	.	4f/	.	4F\	.	4F\	.	4a\	.	4ff\	.	4fff\	.
4r	.	.	4r	.	4r	.	4r	.	4r	.	.	4r	.	.	4r	.	.	4r	.	.	4r	.	4r	.	4r	.	4r	.	4r	.	4r	.	4r	.	4r	.
!	!	!	!	!	!LO:LB:g=original	!	!	!	!	!	!	!	!	!	!	!	!	!	!	!	!	!	!	!	!	!	!	!	!	!	!	!	!	!	!LO:LB:g=original	!
=9	=9	=9	=9	=9	=9	=9	=9	=9	=9	=9	=9	=9	=9	=9	=9	=9	=9	=9	=9	=9	=9	=9	=9	=9	=9	=9	=9	=9	=9	=9	=9	=9	=9	=9	=9	=9
!	!	!LO:DY:rj	!	!LO:DY:rj	!	!	!	!LO:DY:rj	!LO:TX:a:t=1.	!	!	!LO:TX:a:t=1.	!	!	!LO:TX:a:t=1.	!	!	!LO:TX:a:t=1.	!	!	!LO:TX:a:t=6.	!	!LO:TX:a:t=6	!	!LO:TX:a:t=6.	!	!LO:TX:a:t=4.	!	!LO:TX:a:t=4.	!	!LO:TX:a:t=4.	!	!LO:TX:a:t=4.	!	!LO:TX:a:t=4.	!
4C/	.	p	4c\	p	4.c/	p	4.c/	p	1r	.	.	1r	.	.	1r	.	.	1r	.	.	00r	.	00r	.	00r	.	00r	.	00r	.	00r	.	00r	.	00r	.
4C/	.	.	4c\	.	.	.	.	.	.	.	.	.	.	.	.	.	.	.	.	.	.	.	.	.	.	.	.	.	.	.	.	.	.	.	.	.
.	.	.	.	.	(16e-/LL	.	(16e-/LL	.	.	.	.	.	.	.	.	.	.	.	.	.	.	.	.	.	.	.	.	.	.	.	.	.	.	.	.	.
.	.	.	.	.	16d/JJ)	.	16d/JJ)	.	.	.	.	.	.	.	.	.	.	.	.	.	.	.	.	.	.	.	.	.	.	.	.	.	.	.	.	.
4C/	.	.	4c\	.	4.c/	.	4.c/	.	.	.	.	.	.	.	.	.	.	.	.	.	.	.	.	.	.	.	.	.	.	.	.	.	.	.	.	.
4C/	.	.	4c\	.	.	.	.	.	.	.	.	.	.	.	.	.	.	.	.	.	.	.	.	.	.	.	.	.	.	.	.	.	.	.	.	.
.	.	.	.	.	(16e-/LL	.	(16e-/LL	.	.	.	.	.	.	.	.	.	.	.	.	.	.	.	.	.	.	.	.	.	.	.	.	.	.	.	.	.
.	.	.	.	.	16d/JJ)	.	16d/JJ)	.	.	.	.	.	.	.	.	.	.	.	.	.	.	.	.	.	.	.	.	.	.	.	.	.	.	.	.	.
!	!	!	!	!	!	!	!LO:LB:g=original	!	!	!	!	!	!	!	!	!	!	!	!	!	!	!	!	!	!	!	!	!	!	!	!	!	!	!	!	!
=10	=10	=10	=10	=10	=10	=10	=10	=10	=10	=10	=10	=10	=10	=10	=10	=10	=10	=10	=10	=10	=10	=10	=10	=10	=10	=10	=10	=10	=10	=10	=10	=10	=10	=10	=10	=10
*	*	*	*tremolo	*	*	*	*tuplet	*	*	*	*	*	*	*	*	*	*	*	*	*	*	*	*	*	*	*	*	*	*	*	*	*	*	*	*	*
!LO:TUP:b	!	!	!	!	!LO:TUP:b	!	!	!	!	!	!	!	!	!	!	!	!	!	!	!	!	!	!	!	!	!	!	!	!	!	!	!	!	!	!	!
!LO:TX:t=P:problem=klamra łukowa	!	!	!LO:TX:t=P:problem=klamra łukowa	!	!LO:TX:t=P:problem=klamra łukowa	!	!LO:TUP:b	!	!	!	!LO:DY:rj	!	!	!LO:DY:rj	!	!	!	!	!	!LO:DY:rj	!	!	!	!	!	!	!	!	!	!	!	!	!	!	!	!
12C/L	5_ 3_	.	12c\L	.	12c/L	.	12c/L	.	1C/	San-	p	1c\	San-	p	1e-\	San-	.	1g\	San-	p	.	.	.	.	.	.	.	.	.	.	.	.	.	.	.	.
12C/	.	.	12c\	.	12e-/	.	12g/	.	.	.	.	.	.	.	.	.	.	.	.	.	.	.	.	.	.	.	.	.	.	.	.	.	.	.	.	.
12C/J	.	.	12c\J	.	12e-/J	.	12g/J	.	.	.	.	.	.	.	.	.	.	.	.	.	.	.	.	.	.	.	.	.	.	.	.	.	.	.	.	.
*tremolo	*	*	*	*	*tremolo	*	*tremolo	*	*	*	*	*	*	*	*	*	*	*	*	*	*	*	*	*	*	*	*	*	*	*	*	*	*	*	*	*
!LO:TUP:b	!	!	!	!	!LO:TUP:b	!	!	!	!	!	!	!	!	!	!	!	!	!	!	!	!	!	!	!	!	!	!	!	!	!	!	!	!	!	!	!
!LO:TX:t=P:problem=klamra łukowa	!	!	!LO:TX:t=P:problem=klamra łukowa	!	!LO:TX:t=P:problem=klamra łukowa	!	!LO:TX:b:t=...	!	!	!	!	!	!	!	!	!	!	!	!	!	!	!	!	!	!	!	!	!	!	!	!	!	!	!	!	!
12C/L	.	.	12c\L	.	12e-/L	.	12g/L	.	.	.	.	.	.	.	.	.	.	.	.	.	.	.	.	.	.	.	.	.	.	.	.	.	.	.	.	.
12C/	.	.	12c\	.	12e-/	.	12g/	.	.	.	.	.	.	.	.	.	.	.	.	.	.	.	.	.	.	.	.	.	.	.	.	.	.	.	.	.
12C/J	.	.	12c\J	.	12e-/J	.	12g/J	.	.	.	.	.	.	.	.	.	.	.	.	.	.	.	.	.	.	.	.	.	.	.	.	.	.	.	.	.
*	*	*	*	*	*	*	*Xtremolo	*	*	*	*	*	*	*	*	*	*	*	*	*	*	*	*	*	*	*	*	*	*	*	*	*	*	*	*	*
!LO:TUP:b	!	!	!	!	!LO:TUP:b	!	!	!	!	!	!	!	!	!	!	!	!	!	!	!	!	!	!	!	!	!	!	!	!	!	!	!	!	!	!	!
!LO:TX:t=P:problem=klamra łukowa	!	!	!LO:TX:t=P:problem=klamra łukowa	!	!LO:TX:t=P:problem=klamra łukowa	!	!LO:TUP:b	!	!	!	!	!	!	!	!	!	!	!	!	!	!	!	!	!	!	!	!	!	!	!	!	!	!	!	!	!
12C/L	.	.	12c\L	.	12e-/L	.	12g/L	.	.	.	.	.	.	.	.	.	.	.	.	.	.	.	.	.	.	.	.	.	.	.	.	.	.	.	.	.
12C/	.	.	12c\	.	12e-/	.	12f#X/	.	.	.	.	.	.	.	.	.	.	.	.	.	.	.	.	.	.	.	.	.	.	.	.	.	.	.	.	.
12C/J	.	.	12c\J	.	12e-/J	.	12g/J	.	.	.	.	.	.	.	.	.	.	.	.	.	.	.	.	.	.	.	.	.	.	.	.	.	.	.	.	.
!LO:TUP:b	!	!	!	!	!LO:TUP:b	!	!	!	!	!	!	!	!	!	!	!	!	!	!	!	!	!	!	!	!	!	!	!	!	!	!	!	!	!	!	!
!LO:TX:t=P:problem=klamra łukowa	!	!	!LO:TX:t=P:problem=klamra łukowa	!	!LO:TX:t=P:problem=klamra łukowa	!	!LO:TUP:b	!	!	!	!	!	!	!	!	!	!	!	!	!	!	!	!	!	!	!	!	!	!	!	!	!	!	!	!	!
12C/L	.	.	12c\L	.	12e-/L	.	12a-X/L	.	.	.	.	.	.	.	.	.	.	.	.	.	.	.	.	.	.	.	.	.	.	.	.	.	.	.	.	.
12C/	.	.	12c\	.	12e-/	.	12g/	.	.	.	.	.	.	.	.	.	.	.	.	.	.	.	.	.	.	.	.	.	.	.	.	.	.	.	.	.
12C/J	.	.	12c\J	.	12e-/J	.	12g/J	.	.	.	.	.	.	.	.	.	.	.	.	.	.	.	.	.	.	.	.	.	.	.	.	.	.	.	.	.
*Xtremolo	*	*	*Xtremolo	*	*Xtremolo	*	*	*	*	*	*	*	*	*	*	*	*	*	*	*	*	*	*	*	*	*	*	*	*	*	*	*	*	*	*	*
!LO:LB:g=original	!	!	!	!	!	!	!	!	!	!	!	!	!	!	!	!	!	!	!	!	!	!	!	!	!	!	!	!	!	!	!	!	!	!	!	!
=11	=11	=11	=11	=11	=11	=11	=11	=11	=11	=11	=11	=11	=11	=11	=11	=11	=11	=11	=11	=11	=11	=11	=11	=11	=11	=11	=11	=11	=11	=11	=11	=11	=11	=11	=11	=11
4BBn/|	x	.	4Bn/	.	4.d/	.	4.d/	.	4BBn/	-ctus	.	4d\	-ctus	.	4f\	-ctus	.	4g\	-ctus	.	.	.	.	.	.	.	.	.	.	.	.	.	.	.	.	.
4BB/|	.	.	4B/	.	.	.	.	.	4r	.	.	4r	.	.	4r	.	.	4r	.	.	.	.	.	.	.	.	.	.	.	.	.	.	.	.	.	.
.	.	.	.	.	(16f/LL	.	(16fn/LL	.	.	.	.	.	.	.	.	.	.	.	.	.	.	.	.	.	.	.	.	.	.	.	.	.	.	.	.	.
.	.	.	.	.	16e-/JJ)	.	16e-/JJ)	.	.	.	.	.	.	.	.	.	.	.	.	.	.	.	.	.	.	.	.	.	.	.	.	.	.	.	.	.
4BB/|	.	.	4B/	.	4.d/	.	4.d/	.	2r	.	.	2r	.	.	2r	.	.	2r	.	.	.	.	.	.	.	.	.	.	.	.	.	.	.	.	.	.
4BB/|	.	.	4B/	.	.	.	.	.	.	.	.	.	.	.	.	.	.	.	.	.	.	.	.	.	.	.	.	.	.	.	.	.	.	.	.	.
.	.	.	.	.	(16f/LL	.	(16f/LL	.	.	.	.	.	.	.	.	.	.	.	.	.	.	.	.	.	.	.	.	.	.	.	.	.	.	.	.	.
.	.	.	.	.	16e-/JJ)	.	16e-/JJ)	.	.	.	.	.	.	.	.	.	.	.	.	.	.	.	.	.	.	.	.	.	.	.	.	.	.	.	.	.
=12	=12	=12	=12	=12	=12	=12	=12	=12	=12	=12	=12	=12	=12	=12	=12	=12	=12	=12	=12	=12	=12	=12	=12	=12	=12	=12	=12	=12	=12	=12	=12	=12	=12	=12	=12	=12
*tremolo	*	*	*tremolo	*	*	*	*	*	*	*	*	*	*	*	*	*	*	*	*	*	*	*	*	*	*	*	*	*	*	*	*	*	*	*	*	*
!LO:TX:t=P:problem=klamra łukowa	!	!	!LO:TX:t=P:problem=klamra łukowa	!	!LO:TX:t=P:problem=klamra łukowa	!	!LO:TUP:b	!	!	!	!	!	!	!	!	!	!	!	!	!	!	!	!	!	!	!	!	!	!	!	!	!	!	!	!	!
!LO:TUP:b	!	!	!LO:TUP:b	!	!LO:TUP:b	!	!	!	!	!	!	!	!	!	!	!	!	!	!	!	!	!	!	!	!	!	!	!	!	!	!	!	!	!	!	!
12BBn/L	6_ 5_	.	12Bn/L	.	12d/L	.	12d/L	.	1BBn/	San-	.	1d\	San-	.	1f\	San-	.	1g\	San-	.	.	.	.	.	.	.	.	.	.	.	.	.	.	.	.	.
12BB/	.	.	12B/	.	12f/ 12d/	.	12g/	.	.	.	.	.	.	.	.	.	.	.	.	.	.	.	.	.	.	.	.	.	.	.	.	.	.	.	.	.
12BB/J	.	.	12B/J	.	12f/J 12d/	.	12g/J	.	.	.	.	.	.	.	.	.	.	.	.	.	.	.	.	.	.	.	.	.	.	.	.	.	.	.	.	.
*	*	*	*	*	*tremolo	*	*	*	*	*	*	*	*	*	*	*	*	*	*	*	*	*	*	*	*	*	*	*	*	*	*	*	*	*	*	*
!LO:TUP:b	!	!	!LO:TUP:b	!	!LO:TUP:b	!	!	!	!	!	!	!	!	!	!	!	!	!	!	!	!	!	!	!	!	!	!	!	!	!	!	!	!	!	!	!
!LO:TX:t=P:problem=klamra łukowa	!	!	!LO:TX:t=P:problem=klamra łukowa	!	!LO:TX:t=P:problem=klamra łukowa	!	!LO:TUP:b	!	!	!	!	!	!	!	!	!	!	!	!	!	!	!	!	!	!	!	!	!	!	!	!	!	!	!	!	!
12BB/L	.	.	12B/L	.	12f/ 12d/L	.	12g/L	.	.	.	.	.	.	.	.	.	.	.	.	.	.	.	.	.	.	.	.	.	.	.	.	.	.	.	.	.
12BB/	.	.	12B/	.	12f/ 12d/	.	12g/	.	.	.	.	.	.	.	.	.	.	.	.	.	.	.	.	.	.	.	.	.	.	.	.	.	.	.	.	.
12BB/J	.	.	12B/J	.	12f/ 12d/J	.	12g/J	.	.	.	.	.	.	.	.	.	.	.	.	.	.	.	.	.	.	.	.	.	.	.	.	.	.	.	.	.
!LO:TUP:b	!	!	!LO:TUP:b	!	!LO:TUP:b	!	!	!	!	!	!	!	!	!	!	!	!	!	!	!	!	!	!	!	!	!	!	!	!	!	!	!	!	!	!	!
!LO:TX:t=P:problem=klamra łukowa	!	!	!LO:TX:t=P:problem=klamra łukowa	!	!LO:TX:t=P:problem=klamra łukowa	!	!LO:TUP:b	!	!	!	!	!	!	!	!	!	!	!	!	!	!	!	!	!	!	!	!	!	!	!	!	!	!	!	!	!
12BB/L	.	.	12B/L	.	12f/ 12d/L	.	12g/L	.	.	.	.	.	.	.	.	.	.	.	.	.	.	.	.	.	.	.	.	.	.	.	.	.	.	.	.	.
12BB/	.	.	12B/	.	12f/ 12d/	.	12f#X/	.	.	.	.	.	.	.	.	.	.	.	.	.	.	.	.	.	.	.	.	.	.	.	.	.	.	.	.	.
12BB/J	.	.	12B/J	.	12f/ 12d/J	.	12g/J	.	.	.	.	.	.	.	.	.	.	.	.	.	.	.	.	.	.	.	.	.	.	.	.	.	.	.	.	.
!LO:TUP:b	!	!	!LO:TUP:b	!	!LO:TUP:b	!	!	!	!	!	!	!	!	!	!	!	!	!	!	!	!	!	!	!	!	!	!	!	!	!	!	!	!	!	!	!
!LO:TX:t=P:problem=klamra łukowa	!	!	!LO:TX:t=P:problem=klamra łukowa	!	!LO:TX:t=P:problem=klamra łukowa	!	!LO:TUP:b	!	!	!	!	!	!	!	!	!	!	!	!	!	!	!	!	!	!	!	!	!	!	!	!	!	!	!	!	!
12BB/L	.	.	12B/L	.	12f/ 12d/L	.	12a-X/L	.	.	.	.	.	.	.	.	.	.	.	.	.	.	.	.	.	.	.	.	.	.	.	.	.	.	.	.	.
12BB/	.	.	12B/	.	12f/ 12d/	.	12g/	.	.	.	.	.	.	.	.	.	.	.	.	.	.	.	.	.	.	.	.	.	.	.	.	.	.	.	.	.
12BB/J	.	.	12B/J	.	12f/ 12d/J	.	12g/J	.	.	.	.	.	.	.	.	.	.	.	.	.	.	.	.	.	.	.	.	.	.	.	.	.	.	.	.	.
*Xtremolo	*	*	*	*	*Xtremolo	*	*	*	*	*	*	*	*	*	*	*	*	*	*	*	*	*	*	*	*	*	*	*	*	*	*	*	*	*	*	*
!	!	!	!LO:LB:g=original	!	!	!	!	!	!	!	!	!	!	!	!	!	!	!	!	!	!	!	!	!	!	!	!	!	!	!	!	!	!	!	!	!
=13	=13	=13	=13	=13	=13	=13	=13	=13	=13	=13	=13	=13	=13	=13	=13	=13	=13	=13	=13	=13	=13	=13	=13	=13	=13	=13	=13	=13	=13	=13	=13	=13	=13	=13	=13	=13
!	!	!	!LO:TX:t=P:f = f.:problem	!	!LO:TX:t=P:f = f.:problem	!	!	!	!	!	!	!	!	!	!	!	!	!	!	!	!	!	!	!	!	!	!	!	!	!	!	!	!	!	!	!
!	!	!	!	!	!LO:TUP:b	!	!	!	!	!	!	!	!	!	!	!	!	!	!	!	!	!	!	!	!	!	!	!	!	!	!	!	!	!	!LO:TUP:a	!
!	!	!LO:DY:rj	!LO:TX:t=P:problem=klamra łukowa	!LO:DY:rj:t=f.	!LO:TX:t=P:problem=klamra łukowa	!LO:DY:rj:t=f.	!	!LO:DY:rj:t=f.	!	!	!LO:DY:rj	!	!	!	!	!	!	!	!	!	!	!	!	!	!	!	!	!	!	!	!	!	!	!	!LO:TX:t=P:problem=klamra łukowa	!LO:DY:rj
4C/	3	f	12c\L	f	12e-/L	f	12g\L	f	4C/	-ctus	f	4c\	-ctus	.	4e-\	-ctus	.	4g\	-ctus	.	0r	.	0r	.	0r	.	2c\	.	2e-X\	.	1g/	.	2ee-\	.	12gg\L	f
.	.	.	12c\	.	12g/	.	12ee-\	.	.	.	.	.	.	.	.	.	.	.	.	.	.	.	.	.	.	.	.	.	.	.	.	.	.	.	12eee-X\	.
.	.	.	12c\J	.	12f/J	.	12dd\J	.	.	.	.	.	.	.	.	.	.	.	.	.	.	.	.	.	.	.	.	.	.	.	.	.	.	.	12ddd\J	.
*	*	*	*	*	*tremolo	*	*	*	*	*	*	*	*	*	*	*	*	*	*	*	*	*	*	*	*	*	*	*	*	*	*	*	*	*	*tremolo	*
!	!	!	!	!	!	!	!	!	!	!	!	!	!	!	!	!	!	!	!	!	!	!	!	!	!	!	!	!	!	!	!	!	!	!	!LO:SIC:v:s=12ccc\L	!
!	!	!	!	!	!LO:TUP:b	!	!	!	!	!	!	!	!	!	!	!	!	!	!	!	!	!	!	!	!	!	!	!	!	!	!	!	!	!	!LO:TUP:a	!
!	!	!	!LO:TX:t=P:problem=klamra łukowa	!	!LO:TX:t=P:problem=klamra łukowa	!	!	!	!	!	!	!	!	!	!	!	!	!	!	!	!	!	!	!	!	!	!	!	!	!	!	!	!	!	!LO:TX:t=P:problem=klamra łukowa	!
4GG/	.	.	12c\L	.	12e-/L	.	12cc\L	.	4r	.	.	4r	.	.	4r	.	.	4r	.	f	.	.	.	.	.	.	.	.	.	.	.	.	.	.	12ddd\L	.
!	!	!	!	!	!	!	!	!	!	!	!	!	!	!	!	!	!	!	!	!	!	!	!	!	!	!	!	!	!	!	!	!	!	!	!LO:SIC:v:s=12ccc\	!
.	.	.	12c\	.	12e-/	.	12cc\	.	.	.	.	.	.	.	.	.	.	.	.	.	.	.	.	.	.	.	.	.	.	.	.	.	.	.	12ddd\	.
!	!	!	!	!	!	!	!	!	!	!	!	!	!	!	!	!	!	!	!	!	!	!	!	!	!	!	!	!	!	!	!	!	!	!	!LO:SIC:v:s=12ccc\J	!
.	.	.	12c\J	.	12e-/J	.	12cc\J	.	.	.	.	.	.	.	.	.	.	.	.	.	.	.	.	.	.	.	.	.	.	.	.	.	.	.	12ddd\J	.
*	*	*	*	*	*Xtremolo	*	*	*	*	*	*	*	*	*	*	*	*	*	*	*	*	*	*	*	*	*	*	*	*	*	*	*	*	*	*Xtremolo	*
!	!	!	!LO:TUP:b	!	!LO:TUP:b	!	!	!	!	!	!	!	!	!	!	!	!	!	!	!	!	!	!	!	!	!	!	!	!	!	!	!	!	!	!	!
!	!	!	!LO:TX:t=P:problem=klamra łukowa	!	!LO:TX:t=P:problem=klamra łukowa	!	!	!	!	!	!	!	!	!LO:DY:rj:t=f.	!	!	!LO:DY:rj:t=forto	!	!	!	!	!	!	!	!	!	!	!	!	!	!	!	!	!	!	!
4D/	3	.	12d/ 12G/L	.	12d/L	.	12bn\L	.	4G\	San-	.	4d\	San-	f	4g\	San-	f	4bn\	San-	.	.	.	.	.	.	.	2Bn\	.	2d\	.	.	.	2dd\	.	2ddd\	.
.	.	.	12d/ 12G/	.	12f/ 12G/	.	12gg\	.	.	.	.	.	.	.	.	.	.	.	.	.	.	.	.	.	.	.	.	.	.	.	.	.	.	.	.	.
.	.	.	12d/ 12G/J	.	12f/J 12G/	.	12gg\J	.	.	.	.	.	.	.	.	.	.	.	.	.	.	.	.	.	.	.	.	.	.	.	.	.	.	.	.	.
*	*	*	*	*	*tremolo	*	*	*	*	*	*	*	*	*	*	*	*	*	*	*	*	*	*	*	*	*	*	*	*	*	*	*	*	*	*	*
!	!	!	!LO:TUP:b	!	!LO:TUP:b	!	!	!	!	!	!	!	!	!	!	!	!	!	!	!	!	!	!	!	!	!	!	!	!	!	!	!	!	!	!	!
!	!	!	!LO:TX:t=P:problem=klamra łukowa	!	!	!	!	!	!	!	!	!	!	!	!	!	!	!	!	!	!	!	!	!	!	!	!	!	!	!	!	!	!	!	!	!
4GG/	.	.	12d/ 12G/L	.	12f/ 12G/L	.	12aa-X\L	.	4G\	-ctus	.	4d\	-ctus	.	4g\	-ctus	.	4b\	-ctus	.	.	.	.	.	.	.	.	.	.	.	.	.	.	.	.	.
.	.	.	12d/ 12G/	.	12f/ 12G/	.	12gg\	.	.	.	.	.	.	.	.	.	.	.	.	.	.	.	.	.	.	.	.	.	.	.	.	.	.	.	.	.
.	.	.	12d/ 12G/J	.	12f/ 12G/J	.	12ff\J	.	.	.	.	.	.	.	.	.	.	.	.	.	.	.	.	.	.	.	.	.	.	.	.	.	.	.	.	.
*	*	*	*	*	*Xtremolo	*	*	*	*	*	*	*	*	*	*	*	*	*	*	*	*	*	*	*	*	*	*	*	*	*	*	*	*	*	*	*
!	!	!	!	!	!LO:LB:g=original	!	!	!	!	!	!	!	!	!	!	!	!	!	!	!	!	!	!	!	!	!	!	!	!	!	!	!	!	!	!	!
=14	=14	=14	=14	=14	=14	=14	=14	=14	=14	=14	=14	=14	=14	=14	=14	=14	=14	=14	=14	=14	=14	=14	=14	=14	=14	=14	=14	=14	=14	=14	=14	=14	=14	=14	=14	=14
!	!	!	!	!	!LO:TUP:b	!	!	!	!	!	!	!	!	!	!	!	!	!	!	!	!	!	!	!	!	!	!	!	!	!	!	!	!	!	!LO:TUP:a	!
!	!	!	!LO:TX:t=P:problem=klamra łukowa	!	!LO:TX:t=P:problem=klamra łukowa	!	!	!	!	!	!	!	!	!	!	!	!	!	!	!	!	!	!	!	!	!	!	!	!	!	!	!	!	!	!LO:TX:t=P:problem=klamra łukowa	!
4C/	3	.	12c\L	.	12e-/L	.	12g\L	.	8.G\	do-	.	8.e-\	Do-	.	8.g\	do-	.	8.cc\	Do-	.	.	.	.	.	.	.	2c\	.	2e-\	.	1g/	.	2ee-\	.	12gg\L	.
.	.	.	12c\	.	12g/	.	12ee-\	.	.	.	.	.	.	.	.	.	.	.	.	.	.	.	.	.	.	.	.	.	.	.	.	.	.	.	12eee-\	.
.	.	.	12c\J	.	12f/J	.	12dd\J	.	.	.	.	.	.	.	.	.	.	.	.	.	.	.	.	.	.	.	.	.	.	.	.	.	.	.	12ddd\J	.
.	.	.	.	.	.	.	.	.	16G\	-mi-	.	16e-\	-mi-	.	16g\	-mi-	.	16cc\	-mi-	.	.	.	.	.	.	.	.	.	.	.	.	.	.	.	.	.
*	*	*	*	*	*tremolo	*	*tremolo	*	*	*	*	*	*	*	*	*	*	*	*	*	*	*	*	*	*	*	*	*	*	*	*	*	*	*	*	*
!	!	!	!	!	!LO:TUP:b	!	!	!	!	!	!	!	!	!	!	!	!	!	!	!	!	!	!	!	!	!	!	!	!	!	!	!	!	!	!	!
!	!	!	!LO:TX:t=P:problem=klamra łukowa	!	!LO:TX:t=P:problem=klamra łukowa	!	!	!	!	!	!	!	!	!	!	!	!	!	!	!	!	!	!	!	!	!	!	!	!	!	!	!	!	!	!LO:TUP:a	!
4GG/	.	.	12c\L	.	12e-/L	.	12cc\L	.	4G\	-nus	.	4e-\	-nus	.	4g\	-nus	.	4cc\	-nus	.	.	.	.	.	.	.	.	.	.	.	.	.	.	.	12ccc\L	.
.	.	.	12c\	.	12e-/	.	12cc\	.	.	.	.	.	.	.	.	.	.	.	.	.	.	.	.	.	.	.	.	.	.	.	.	.	.	.	12ccc\	.
.	.	.	12c\J	.	12e-/J	.	12cc\J	.	.	.	.	.	.	.	.	.	.	.	.	.	.	.	.	.	.	.	.	.	.	.	.	.	.	.	12ccc\J	.
*	*	*	*	*	*Xtremolo	*	*	*	*	*	*	*	*	*	*	*	*	*	*	*	*	*	*	*	*	*	*	*	*	*	*	*	*	*	*Xtremolo	*
*	*	*	*	*	*	*	*Xtremolo	*	*	*	*	*	*	*	*	*	*	*	*	*	*	*	*	*	*	*	*	*	*	*	*	*	*	*	*	*
!	!	!	!	!	!LO:TUP:b	!	!	!	!	!	!	!	!	!	!	!	!	!	!	!	!	!	!	!	!	!	!	!	!	!	!	!	!	!	!	!
!	!	!	!LO:TX:t=P:problem=klamra łukowa	!	!LO:TX:t=P:problem=klamra łukowa	!	!LO:TX:t=h	!	!	!	!	!	!	!	!	!	!	!	!	!	!	!	!	!	!	!	!	!	!	!	!	!	!	!	!	!
4D/	3	.	12d/ 12G/L	.	12d/L	.	12bn\L	.	4G\	De-	.	4d\	De-	.	4g\	De-	.	4bn\	De-	.	.	.	.	.	.	.	2Bn\	.	2d\	.	.	.	2dd\	.	2ddd\	.
.	.	.	12d/ 12G/	.	12f/ 12G/	.	12gg\	.	.	.	.	.	.	.	.	.	.	.	.	.	.	.	.	.	.	.	.	.	.	.	.	.	.	.	.	.
.	.	.	12d/ 12G/J	.	12f/J 12G/	.	12gg\J	.	.	.	.	.	.	.	.	.	.	.	.	.	.	.	.	.	.	.	.	.	.	.	.	.	.	.	.	.
*	*	*	*	*	*tremolo	*	*	*	*	*	*	*	*	*	*	*	*	*	*	*	*	*	*	*	*	*	*	*	*	*	*	*	*	*	*	*
!	!	!	!LO:TX:t=P:problem=klamra łukowa	!	!LO:TUP:b	!	!	!	!	!	!	!	!	!	!	!	!	!	!	!	!	!	!	!	!	!	!	!	!	!	!	!	!	!	!	!
4GG/	.	.	12d/ 12G/L	.	12f/ 12G/L	.	12aa-X\L	.	4G\	-us	.	4d\	-us	.	4g\	-us	.	4b\	-us	.	.	.	.	.	.	.	.	.	.	.	.	.	.	.	.	.
.	.	.	12d/ 12G/	.	12f/ 12G/	.	12gg\	.	.	.	.	.	.	.	.	.	.	.	.	.	.	.	.	.	.	.	.	.	.	.	.	.	.	.	.	.
.	.	.	12d/ 12G/J	.	12f/ 12G/J	.	12ff\J	.	.	.	.	.	.	.	.	.	.	.	.	.	.	.	.	.	.	.	.	.	.	.	.	.	.	.	.	.
!	!	!	!	!	!	!	!LO:LB:g=original	!	!LO:LB:g=original	!	!	!LO:LB:g=original	!	!	!LO:LB:g=original	!	!	!LO:LB:g=original	!	!	!	!	!	!	!	!	!	!	!	!	!	!	!	!	!	!
*	*	*	*	*	*Xtremolo	*	*	*	*	*	*	*	*	*	*	*	*	*	*	*	*	*	*	*	*	*	*	*	*	*	*	*	*	*	*	*
!	!	!	!	!	!	!	!	!	!	!	!	!	!	!	!	!	!	!	!	!	!	!	!	!	!	!	!LO:LB:g=original	!	!	!	!	!	!LO:LB:g=original	!	!	!
=15	=15	=15	=15	=15	=15	=15	=15	=15	=15	=15	=15	=15	=15	=15	=15	=15	=15	=15	=15	=15	=15	=15	=15	=15	=15	=15	=15	=15	=15	=15	=15	=15	=15	=15	=15	=15
*	*	*	*	*	*	*	*	*	*	*	*	*	*	*	*	*	*	*	*	*	*	*	*tremolo	*	*	*	*	*	*	*	*	*	*	*	*	*
!	!	!	!	!	!	!	!	!	!	!	!	!	!	!	!	!	!	!	!	!	!	!	!LO:TX:t=P:problem=złe wyświetlanie wartości rytmicznej tremolo w t. 15	!	!	!	!	!	!	!	!	!	!	!	!	!
!	!	!	!	!	!	!	!	!	!	!	!	!	!	!	!	!	!	!	!	!	!	!	!LO:N:TREM:vis=4.	!	!	!	!	!	!	!	!	!	!	!	!	!
!	!	!	!	!	!LO:TUP:b	!	!	!	!	!	!	!	!	!	!	!	!	!	!	!	!	!	!LO:TUP:b	!	!LO:TUP:a	!	!	!	!	!	!	!	!	!	!	!
!LO:TX:t=P:problem=klamra łukowa	!	!	!LO:TX:t=P:problem=klamra łukowa	!	!LO:TX:t=P:problem=klamra łukowa	!	!	!	!	!	!	!	!	!	!	!	!	!	!	!	!	!	!LO:TX:t=P:problem=klamra łukowa	!LO:DY:rj	!LO:TX:t=P:problem=klamra łukowa	!	!	!	!	!	!	!	!	!	!	!
12E-\L	3_	.	12e-\L	.	12e-/L	.	12gg\L	.	4E-\	De-	.	4e-\	De-	.	4b-\	De-	.	4gg\	De-	.	4BB-/	.	12B-/L	f	12b-\L	.	2c\	.	2e-\	.	2b-\	.	4gg\	.	4ggg\	.
12E-\	.	.	12e-\	.	12b-/	.	12gg\	.	.	.	.	.	.	.	.	.	.	.	.	.	.	.	12B-/	.	12b-\	.	.	.	.	.	.	.	.	.	.	.
12E-\J	.	.	12e-\J	.	12b-/J	.	12gg\J	.	.	.	.	.	.	.	.	.	.	.	.	.	.	.	12B-/J	.	12b-\J	.	.	.	.	.	.	.	.	.	.	.
*tremolo	*	*	*	*	*	*	*	*	*	*	*	*	*	*	*	*	*	*	*	*	*	*	*	*	*	*	*	*	*	*	*	*	*	*	*	*
!	!	!	!	!	!LO:TUP:b	!	!LO:TX:a:t=g.	!	!	!	!	!	!	!	!	!	!	!	!	!	!	!	!	!	!LO:TUP:a	!	!	!	!	!	!	!	!	!	!LO:TUP:a	!
!LO:TX:t=P:problem=klamra łukowa	!	!	!LO:TX:t=P:problem=klamra łukowa	!	!LO:TX:t=P:problem=klamra łukowa	!	!	!	!	!	!	!	!	!	!	!	!	!	!	!	!	!	!	!	!LO:TX:t=P:problem=klamra łukowa	!	!	!	!	!	!	!	!	!	!LO:TX:t=P:problem=klamra łukowa	!
12E-\L	.	.	12e-\L	.	12b-/L	.	12gg\L	.	4E-\	-us	.	4e-\	-us	.	4b-\	-us	.	4ee-\	-us	.	4BB-/	.	12B-/L	.	12b-\L	.	.	.	.	.	.	.	4ee-\	.	12ggg\L	.
12E-\	.	.	12e-\	.	12b-/	.	12ff\	.	.	.	.	.	.	.	.	.	.	.	.	.	.	.	12B-/	.	12b-\	.	.	.	.	.	.	.	.	.	12fff\	.
12E-\J	.	.	12e-\J	.	12b-/J	.	12ee-\J	.	.	.	.	.	.	.	.	.	.	.	.	.	.	.	12B-/J	.	12b-\J	.	.	.	.	.	.	.	.	.	12eee-\J	.
*	*	*	*	*	*	*	*	*	*	*	*	*	*	*	*	*	*	*	*	*	*	*	*Xtremolo	*	*	*	*	*	*	*	*	*	*	*	*	*
!	!	!	!	!	!LO:TUP:b	!	!	!	!	!	!	!	!	!	!	!	!	!	!	!	!	!	!	!	!	!	!	!	!	!	!	!	!	!	!LO:TUP:a	!
!LO:TX:t=P:problem=klamra łukowa	!	!	!LO:TX:t=P:problem=klamra łukowa	!	!LO:TX:t=P:problem=klamra łukowa	!	!	!	!	!	!	!	!	!	!	!	!	!	!	!	!	!	!	!	!	!	!	!	!	!	!	!	!	!	!LO:TX:t=P:problem=klamra łukowa	!
12E-\L	6	.	12e-\L	.	12g/L	.	12ee-\L	.	4E-\	Sa-	.	4e-\	Sa-	.	4g\	Sa-	.	4cc\	Sa-	.	4BB-/	.	4B-/	.	4b-\	.	4c\	.	4e-\	.	2g/	.	4cc\	.	12eee-\L	.
12E-\	.	.	12e-\	.	12g/	.	12dd\	.	.	.	.	.	.	.	.	.	.	.	.	.	.	.	.	.	.	.	.	.	.	.	.	.	.	.	12ddd\	.
12E-\J	.	.	12e-\J	.	12g/J	.	12cc\J	.	.	.	.	.	.	.	.	.	.	.	.	.	.	.	.	.	.	.	.	.	.	.	.	.	.	.	12ccc\J	.
!	!	!	!	!	!LO:TUP:b	!	!	!	!	!	!	!	!	!	!	!	!	!	!	!	!	!	!	!	!	!	!	!	!	!	!	!	!	!	!LO:TUP:a	!
!LO:TX:t=P:problem=klamra łukowa	!	!	!LO:TX:t=P:problem=klamra łukowa	!	!LO:TX:t=P:problem=klamra łukowa	!	!	!	!	!	!	!	!	!	!	!	!	!	!	!	!	!	!	!	!	!	!	!	!	!	!	!	!	!	!LO:TX:t=P:problem=klamra łukowa	!
12E\L	5	.	12en\L	.	12b-/ 12g/L	.	12cc\L	.	4En\	-ba-	.	4c\	-ba-	.	4g\	-ba-	.	4b-X\	-ba-	.	4r	.	4r	.	4r	.	4B-X\	.	4d\	.	.	.	4b-\	.	12ccc\L	.
12E\	.	.	12en\	.	12b-/ 12g/	.	12dd\	.	.	.	.	.	.	.	.	.	.	.	.	.	.	.	.	.	.	.	.	.	.	.	.	.	.	.	12ddd\	.
12E\J	.	.	12en\J	.	12b-/ 12g/J	.	12cc-X\J	.	.	.	.	.	.	.	.	.	.	.	.	.	.	.	.	.	.	.	.	.	.	.	.	.	.	.	12bb-\J	.
*	*	*	*	*	*Xtremolo	*	*	*	*	*	*	*	*	*	*	*	*	*	*	*	*	*	*	*	*	*	*	*	*	*	*	*	*	*	*	*
*Xtremolo	*	*	*	*	*	*	*	*	*	*	*	*	*	*	*	*	*	*	*	*	*	*	*	*	*	*	*	*	*	*	*	*	*	*	*	*
!LO:LB:g=original	!	!	!	!	!	!	!	!	!	!	!	!	!	!	!	!	!	!	!	!	!	!	!	!	!	!	!	!	!LO:LB:g=original	!	!	!	!	!	!	!
=16	=16	=16	=16	=16	=16	=16	=16	=16	=16	=16	=16	=16	=16	=16	=16	=16	=16	=16	=16	=16	=16	=16	=16	=16	=16	=16	=16	=16	=16	=16	=16	=16	=16	=16	=16	=16
!LO:TUP:b	!	!	!	!	!	!	!	!	!	!	!	!	!	!	!	!	!	!	!	!	!	!	!	!	!	!	!	!	!	!	!	!	!	!	!	!
!LO:TX:t=P:problem=klamra łukowa	!	!	!LO:TX:t=P:problem=klamra łukowa	!	!	!	!	!	!	!	!	!	!	!	!	!	!	!	!	!	!	!	!	!	!	!	!	!	!	!	!	!	!	!	!	!
12F/L	3	.	12f\L	.	8a/ 8f/	.	12an\L	.	4F\	-oth	.	4c\	-oth,	.	4f\	-oth	.	4a\	-oth,	.	1FF/TT	.	4F/	.	4f/	.	2A\	.	2c\	.	1f/	.	2a\	.	2aa\	.
12C/	.	.	12f\	.	.	.	12ff\	.	.	.	.	.	.	.	.	.	.	.	.	.	.	.	.	.	.	.	.	.	.	.	.	.	.	.	.	.
.	.	.	.	.	8r	.	.	.	.	.	.	.	.	.	.	.	.	.	.	.	.	.	.	.	.	.	.	.	.	.	.	.	.	.	.	.
12AA/J	.	.	12f\J	.	.	.	12ff\J	.	.	.	.	.	.	.	.	.	.	.	.	.	.	.	.	.	.	.	.	.	.	.	.	.	.	.	.	.
!	!	!	!LO:TX:t=P:problem=klamra łukowa	!	!LO:TX:t=P:problem=klamra łukowa	!	!	!	!	!	!	!	!	!	!	!	!	!	!	!	!	!	!	!	!	!	!	!	!	!	!	!	!	!	!	!
4FF/	.	.	12f\L	.	12a\L	.	12gg\L	.	4r	.	.	4r	.	.	4r	.	.	4r	.	.	.	.	4r	.	4r	.	.	.	.	.	.	.	.	.	.	.
.	.	.	12f\	.	12b-\	.	12ff\	.	.	.	.	.	.	.	.	.	.	.	.	.	.	.	.	.	.	.	.	.	.	.	.	.	.	.	.	.
.	.	.	12f\J	.	12cc\J	.	12ff\J	.	.	.	.	.	.	.	.	.	.	.	.	.	.	.	.	.	.	.	.	.	.	.	.	.	.	.	.	.
!LO:TUP:b	!	!	!	!	!	!	!	!	!	!	!	!	!	!	!	!	!	!	!	!	!	!	!	!	!	!	!	!	!	!	!	!	!	!	!	!
!LO:TX:t=P:problem=klamra łukowa	!	!	!LO:TX:t=P:problem=klamra łukowa	!	!	!	!	!	!	!	!	!	!	!	!	!	!	!	!	!	!	!	!	!	!	!	!	!	!	!	!	!	!	!	!	!
12F/L	.	.	12f\L	.	8dd\	.	12b-\L	.	2F\	San-	.	2d\	San-	.	2f\	San-	.	2b-\	San-	.	.	.	4F/	.	4f/	.	2B-\	.	2d\	.	.	.	2b-\	.	2bb-\	.
12D/	.	.	12f\	.	.	.	12ff\	.	.	.	.	.	.	.	.	.	.	.	.	.	.	.	.	.	.	.	.	.	.	.	.	.	.	.	.	.
.	.	.	.	.	8r	.	.	.	.	.	.	.	.	.	.	.	.	.	.	.	.	.	.	.	.	.	.	.	.	.	.	.	.	.	.	.
12BB-/J	.	.	12f\J	.	.	.	12ff\J	.	.	.	.	.	.	.	.	.	.	.	.	.	.	.	.	.	.	.	.	.	.	.	.	.	.	.	.	.
!	!	!	!LO:TX:t=P:problem=klamra łukowa	!	!LO:TX:t=P:problem=klamra łukowa	!	!	!	!	!	!	!	!	!	!	!	!	!	!	!	!	!	!	!	!	!	!	!	!	!	!	!	!	!	!	!
4FF/	.	.	12f\L	.	12b-\L	.	12gg\L	.	.	.	.	.	.	.	.	.	.	.	.	.	.	.	4r	.	4r	.	.	.	.	.	.	.	.	.	.	.
.	.	.	12f\	.	12cc\	.	12ff\	.	.	.	.	.	.	.	.	.	.	.	.	.	.	.	.	.	.	.	.	.	.	.	.	.	.	.	.	.
.	.	.	12f\J	.	12dd\J	.	12ff\J	.	.	.	.	.	.	.	.	.	.	.	.	.	.	.	.	.	.	.	.	.	.	.	.	.	.	.	.	.
*	*	*	*Xtremolo	*	*	*	*	*	*	*	*	*	*	*	*	*	*	*	*	*	*	*	*	*	*	*	*	*	*	*	*	*	*	*	*	*
!	!	!	!	!	!	!	!	!	!	!	!	!	!	!	!	!	!	!	!	!	!	!	!LO:LB:g=original	!	!	!	!	!	!	!	!	!	!	!	!	!
=17	=17	=17	=17	=17	=17	=17	=17	=17	=17	=17	=17	=17	=17	=17	=17	=17	=17	=17	=17	=17	=17	=17	=17	=17	=17	=17	=17	=17	=17	=17	=17	=17	=17	=17	=17	=17
!LO:TUP:b	!	!	!LO:TX:t=P:problem=klamra łukowa	!	!	!	!	!	!	!	!	!	!	!	!	!	!	!	!	!	!	!	!	!	!	!	!	!	!	!	!	!	!	!	!	!
!LO:TX:t=P:problem=klamra łukowa	!	!	!LO:TX:t=P:problem=mixed beam	!	!	!	!LO:TUP:b	!	!	!	!	!	!	!	!	!	!	!	!	!	!	!	!	!	!	!	!	!	!	!	!	!	!	!	!	!
!	!	!	!LO:TUP:b	!	!	!	!	!	!	!	!	!	!	!	!	!	!	!	!	!	!	!	!	!	!	!	!	!	!	!	!	!	!	!	!	!
12F/L	.	.	12f\L	.	8cc\	.	12A/L	.	4F\	-ctus,	.	4c\	-ctus,	.	4f\	-ctus,	.	4a\	-ctus,	.	1FF/TTT	.	4F/	.	4f/	.	2A\	.	2c\	.	1f/	.	2a\	.	2aa\	.
12C/	.	.	12F/	.	.	.	12f/	.	.	.	.	.	.	.	.	.	.	.	.	.	.	.	.	.	.	.	.	.	.	.	.	.	.	.	.	.
.	.	.	.	.	8r	.	.	.	.	.	.	.	.	.	.	.	.	.	.	.	.	.	.	.	.	.	.	.	.	.	.	.	.	.	.	.
12AA/J	.	.	12F/J	.	.	.	12f/J	.	.	.	.	.	.	.	.	.	.	.	.	.	.	.	.	.	.	.	.	.	.	.	.	.	.	.	.	.
*	*	*	*tremolo	*	*	*	*	*	*	*	*	*	*	*	*	*	*	*	*	*	*	*	*	*	*	*	*	*	*	*	*	*	*	*	*	*
!	!	!	!LO:TUP:b	!	!	!	!	!	!	!	!	!	!	!	!	!	!	!	!	!	!	!	!	!	!	!	!	!	!	!	!	!	!	!	!	!
!	!	!	!LO:TX:t=P:problem=klamra łukowa	!	!LO:TX:t=P:problem=klamra łukowa	!	!LO:TUP:b	!	!	!	!	!	!	!	!	!	!	!	!	!	!	!	!	!	!	!	!	!	!	!	!	!	!	!	!	!
4FF/	.	.	12F/L	.	12A/L	.	12g/L	.	4r	.	.	4r	.	.	4r	.	.	4r	.	.	.	.	4r	.	4r	.	.	.	.	.	.	.	.	.	.	.
.	.	.	12F/	.	12B-/	.	12f/	.	.	.	.	.	.	.	.	.	.	.	.	.	.	.	.	.	.	.	.	.	.	.	.	.	.	.	.	.
.	.	.	12F/J	.	12c/J	.	12f/J	.	.	.	.	.	.	.	.	.	.	.	.	.	.	.	.	.	.	.	.	.	.	.	.	.	.	.	.	.
!LO:TUP:b	!	!	!LO:TUP:b	!	!	!	!	!	!	!	!	!	!	!	!	!	!	!	!	!	!	!	!	!	!	!	!	!	!	!	!	!	!	!	!	!
!LO:TX:t=P:problem=klamra łukowa	!	!	!LO:TX:t=P:problem=klamra łukowa	!	!	!	!LO:TUP:b	!	!	!	!	!	!	!	!	!	!	!	!	!	!	!	!	!	!	!	!	!	!	!	!	!	!	!	!	!
12F/L	.	.	12F/L	.	8d/	.	12B-/L	.	2F\	San-	.	2d\	San-	.	2f\	San-	.	2b-\	San-	.	.	.	4F/	.	4f/	.	2B-\	.	2d\	.	.	.	2b-\	.	2bb-\	.
12D/	.	.	12F/	.	.	.	12f/	.	.	.	.	.	.	.	.	.	.	.	.	.	.	.	.	.	.	.	.	.	.	.	.	.	.	.	.	.
.	.	.	.	.	8r	.	.	.	.	.	.	.	.	.	.	.	.	.	.	.	.	.	.	.	.	.	.	.	.	.	.	.	.	.	.	.
12BB-/J	.	.	12F/J	.	.	.	12f/J	.	.	.	.	.	.	.	.	.	.	.	.	.	.	.	.	.	.	.	.	.	.	.	.	.	.	.	.	.
!	!	!	!LO:TUP:b	!	!	!	!	!	!	!	!	!	!	!	!	!	!	!	!	!	!	!	!	!	!	!	!	!	!	!	!	!	!	!	!	!
!	!	!	!LO:TX:t=P:problem=klamra łukowa	!	!LO:TX:t=P:problem=klamra łukowa	!	!LO:TUP:b	!	!	!	!	!	!	!	!	!	!	!	!	!	!	!	!	!	!	!	!	!	!	!	!	!	!	!	!	!
4FF/	.	.	12F/L	.	12B-/L	.	12g/L	.	.	.	.	.	.	.	.	.	.	.	.	.	.	.	4r	.	4r	.	.	.	.	.	.	.	.	.	.	.
.	.	.	12F/	.	12c/	.	12f/	.	.	.	.	.	.	.	.	.	.	.	.	.	.	.	.	.	.	.	.	.	.	.	.	.	.	.	.	.
.	.	.	12F/J	.	12d/J	.	12f/J	.	.	.	.	.	.	.	.	.	.	.	.	.	.	.	.	.	.	.	.	.	.	.	.	.	.	.	.	.
*	*	*	*Xtremolo	*	*	*	*	*	*	*	*	*	*	*	*	*	*	*	*	*	*	*	*	*	*	*	*	*	*	*	*	*	*	*	*	*
!	!	!	!	!	!LO:LB:g=original	!	!	!	!	!	!	!	!	!	!	!	!	!	!	!	!	!	!	!	!LO:LB:g=original	!	!	!	!	!	!LO:LB:g=original	!	!	!	!	!
=18	=18	=18	=18	=18	=18	=18	=18	=18	=18	=18	=18	=18	=18	=18	=18	=18	=18	=18	=18	=18	=18	=18	=18	=18	=18	=18	=18	=18	=18	=18	=18	=18	=18	=18	=18	=18
!LO:TUP:b	!	!	!LO:TUP:b	!	!	!	!	!	!	!	!	!	!	!	!	!	!	!	!	!	!	!	!	!	!	!	!	!	!	!	!	!	!	!	!	!
!LO:TX:t=P:problem=klamra łukowa	!	!	!LO:TX:t=P:problem=klamra łukowa	!	!	!	!	!	!	!	!	!	!	!	!	!	!	!	!	!	!	!	!	!	!	!	!	!	!	!	!	!	!	!	!	!
12FF/L	8_ 3_	.	12F/L	.	4A/	.	4f/	.	4F\	-ctus	.	4c\	-ctus	.	4f\	-ctus	.	4a\	-ctus	.	1FF/TTT	.	4F/	.	4f/	.	4A\	.	4c\	.	4f/	.	4a\	.	4aa\	.
12AA/	.	.	12A/	.	.	.	.	.	.	.	.	.	.	.	.	.	.	.	.	.	.	.	.	.	.	.	.	.	.	.	.	.	.	.	.	.
12C/J	.	.	12c/J	.	.	.	.	.	.	.	.	.	.	.	.	.	.	.	.	.	.	.	.	.	.	.	.	.	.	.	.	.	.	.	.	.
!LO:TUP:b	!	!	!	!	!	!	!	!	!	!	!	!	!	!	!	!	!	!	!	!	!	!	!	!	!	!	!	!	!	!	!	!	!	!	!	!
!LO:TX:t=P:problem=klamra łukowa	!	!	!LO:TX:t=P:problem=klamra łukowa	!	!	!	!	!	!	!	!	!	!	!	!	!	!	!	!	!	!	!	!	!	!	!	!	!	!	!	!	!	!	!	!	!
12F/L	.	.	12f\L	.	4r	.	4r	.	4r	.	.	4r	.	.	4r	.	.	4r	.	.	.	.	4r	.	4r	.	4r	.	4r	.	4r	.	4r	.	4r	.
12C/	.	.	12c\	.	.	.	.	.	.	.	.	.	.	.	.	.	.	.	.	.	.	.	.	.	.	.	.	.	.	.	.	.	.	.	.	.
12AA/J	.	.	12A\J	.	.	.	.	.	.	.	.	.	.	.	.	.	.	.	.	.	.	.	.	.	.	.	.	.	.	.	.	.	.	.	.	.
!	!	!	!LO:LB:g=original	!	!	!	!	!	!	!	!	!	!	!	!	!	!	!	!	!	!	!	!	!	!	!	!	!	!	!	!	!	!	!	!	!
!LO:TUP:b	!	!	!LO:TUP:b	!	!	!	!	!	!	!	!	!	!	!	!	!	!	!	!	!	!	!	!	!	!	!	!	!	!	!	!	!	!	!	!	!
!LO:TX:t=P:problem=klamra łukowa	!	!	!LO:TX:t=P:problem=klamra łukowa	!	!	!	!	!	!	!	!	!	!	!	!	!	!	!	!	!	!	!	!	!	!	!	!	!	!	!	!	!	!	!	!	!
12FF/L	.	.	12F/L	.	4A/	.	4f/	.	2r	.	.	2r	.	.	2r	.	.	2r	.	.	.	.	4F/	.	4f/	.	4F\	.	4F\	.	4f/	.	4f/	.	4ff\	.
12AA/	.	.	12A/	.	.	.	.	.	.	.	.	.	.	.	.	.	.	.	.	.	.	.	.	.	.	.	.	.	.	.	.	.	.	.	.	.
12C/J	.	.	12c/J	.	.	.	.	.	.	.	.	.	.	.	.	.	.	.	.	.	.	.	.	.	.	.	.	.	.	.	.	.	.	.	.	.
!LO:TUP:b	!	!	!	!	!	!	!	!	!	!	!	!	!	!	!	!	!	!	!	!	!	!	!	!	!	!	!	!	!	!	!	!	!	!	!	!
!LO:TX:t=P:problem=klamra łukowa	!	!	!LO:TX:t=P:problem=klamra łukowa	!	!	!	!	!	!	!	!	!	!	!	!	!	!	!	!	!	!	!	!	!	!	!	!	!	!	!	!	!	!	!	!	!
12F/L	.	.	12f\L	.	4r	.	4r	.	.	.	.	.	.	.	.	.	.	.	.	.	.	.	4r	.	4r	.	4r	.	4r	.	4r	.	4r	.	4r	.
12C/	.	.	12c\	.	.	.	.	.	.	.	.	.	.	.	.	.	.	.	.	.	.	.	.	.	.	.	.	.	.	.	.	.	.	.	.	.
12AA/J	.	.	12A\J	.	.	.	.	.	.	.	.	.	.	.	.	.	.	.	.	.	.	.	.	.	.	.	.	.	.	.	.	.	.	.	.	.
=19	=19	=19	=19	=19	=19	=19	=19	=19	=19	=19	=19	=19	=19	=19	=19	=19	=19	=19	=19	=19	=19	=19	=19	=19	=19	=19	=19	=19	=19	=19	=19	=19	=19	=19	=19	=19
!	!	!	!	!	!	!	!	!	!LO:TX:a:t=1.	!	!	!LO:TX:a:t=1.	!	!	!LO:TX:a:t=1.	!	!	!LO:TX:a:t=1.	!	!	!	!	!	!	!	!	!	!	!	!	!	!	!	!	!	!
2FF/	x	.	2F/	.	2A/	.	2f/	.	1r	.	.	1r	.	.	1r	.	.	1r	.	.	2FF/TTT	.	2F/	.	2f/	.	2FF/	.	2F\	.	2f/	.	2f/	.	2ff\	.
!	!	!	!LO:TX:b:t=Attaca	!	!LO:TX:b:t=attaca	!	!LO:TX:b:t=Attaca	!	!	!	!	!	!	!	!	!	!	!	!	!	!	!	!LO:TX:b:t=Attaca	!	!LO:TX:b:t=Attaca	!	!LO:TX:b:t=Attaca	!	!LO:TX:b:t=Attaca	!	!LO:TX:b:t=Attaca	!	!LO:TX:b:t=Attaca	!	!	!
2r	.	.	2r	.	2r	.	2r	.	.	.	.	.	.	.	.	.	.	.	.	.	2r	.	2r	.	2r	.	2r	.	2r	.	2r	.	2r	.	2r	.
==	==	==	==	==	==	==	==	==	==	==	==	==	==	==	==	==	==	==	==	==	==	==	==	==	==	==	==	==	==	==	==	==	==	==	==	==
*-	*-	*-	*-	*-	*-	*-	*-	*-	*-	*-	*-	*-	*-	*-	*-	*-	*-	*-	*-	*-	*-	*-	*-	*-	*-	*-	*-	*-	*-	*-	*-	*-	*-	*-	*-	*-
!!!system-decoration: [(s1,s2,s3,s4,s5)][(s6,s7)][(s8)][(s9,s10,s11,s12)][(s13,s14,s15)][(s16)]
!!!ENC: Marcin Jachim
!!!END: 2020-10-12
!!!EED: Andrzej Borzym
!!!EEV: 2022-01-17
!!!RDF**kern: > = above
!!!RDF**kern: < = below
!!!RDF**kern: | = vertical stroke
